/* XPM */
static char *result[] = {
/* columns rows colors chars-per-pixel */
"72 72 204 2 ",
"   c #7C3B49",
".  c #BC1613",
"X  c #BD1A14",
"o  c #BB1718",
"O  c #BD1C1B",
"+  c #B5241D",
"@  c #A51D23",
"#  c #AC1C23",
"$  c #B31D26",
"%  c #BD1B20",
"&  c #982C2C",
"*  c #8A2F3B",
"=  c #932B32",
"-  c #9B2C31",
";  c #9D3134",
":  c #9B373A",
">  c #AE2424",
",  c #A52A2C",
"<  c #B12425",
"1  c #BA2226",
"2  c #B5242B",
"3  c #BD232A",
"4  c #B3282B",
"5  c #A1362F",
"6  c #BF3429",
"7  c #A42D33",
"8  c #B22633",
"9  c #B22A32",
"0  c #BA2B33",
"q  c #A23134",
"w  c #AD3437",
"e  c #A73539",
"r  c #AE3339",
"t  c #B73335",
"y  c #B13A36",
"u  c #BB3B35",
"i  c #B4363C",
"p  c #B23B3B",
"a  c #B9393C",
"s  c #C3150F",
"d  c #C8190F",
"f  c #C41514",
"g  c #CA1715",
"h  c #C51A14",
"j  c #CB1B16",
"k  c #C31619",
"l  c #C51B1A",
"z  c #CB1C1B",
"x  c #D01D16",
"c  c #D11D1C",
"v  c #C4221C",
"b  c #CD221D",
"n  c #D42016",
"m  c #D2221D",
"M  c #D9231C",
"N  c #D7291F",
"B  c #C41723",
"V  c #C21C22",
"C  c #CC1E21",
"Z  c #D31C23",
"A  c #D71C27",
"S  c #C42224",
"D  c #CD2222",
"F  c #C52826",
"G  c #CC2A23",
"H  c #CD232A",
"J  c #CA2A2E",
"K  c #D32423",
"L  c #DA2624",
"P  c #D42924",
"I  c #DC2A25",
"U  c #D72628",
"Y  c #DB262A",
"T  c #D42A2A",
"R  c #DC2C2A",
"E  c #C7342E",
"W  c #D9322C",
"Q  c #C32A31",
"!  c #D62A34",
"~  c #C43534",
"^  c #C63539",
"/  c #E42B24",
"(  c #E32D2C",
")  c #E82C2E",
"_  c #E6312E",
"`  c #E8312B",
"'  c #E43131",
"]  c #AC433A",
"[  c #9D3845",
"{  c #A43D42",
"}  c #A63946",
"|  c #AF3D45",
" . c #8F484C",
".. c #924246",
"X. c #964C53",
"o. c #A44043",
"O. c #A3444A",
"+. c #A6484D",
"@. c #AF494B",
"#. c #B34642",
"$. c #B9434B",
"%. c #A64B55",
"&. c #AE4E53",
"*. c #B34956",
"=. c #A75758",
"-. c #A75C5F",
";. c #B45256",
":. c #B4585D",
">. c #A35D62",
",. c #AA5D61",
"<. c #B25F63",
"1. c #9C686A",
"2. c #947079",
"3. c #A4666D",
"4. c #B46668",
"5. c #A46D73",
"6. c #AE6F78",
"7. c #B26C70",
"8. c #A77779",
"9. c #A3757C",
"0. c #BD7075",
"q. c #C24E55",
"w. c #CD585D",
"e. c #C46A6F",
"r. c #CF6873",
"t. c #9A7D86",
"y. c #A87D87",
"u. c #B37C82",
"i. c #7E8793",
"p. c #7F8894",
"a. c #9A868E",
"s. c #8A8691",
"d. c #828B96",
"f. c #8E8B94",
"g. c #858E99",
"h. c #8A8F9A",
"j. c #928791",
"k. c #958B93",
"l. c #998B94",
"z. c #9B8D94",
"x. c #938F98",
"c. c #87919B",
"v. c #8A949E",
"b. c #9E9096",
"n. c #94939C",
"m. c #9C949D",
"M. c #A58688",
"N. c #A5868F",
"B. c #AB858B",
"V. c #B7868B",
"C. c #A38E95",
"Z. c #AB8B92",
"A. c #B28C97",
"S. c #A49297",
"D. c #A4959C",
"F. c #A9969E",
"G. c #8C96A0",
"H. c #8E99A2",
"J. c #9497A1",
"K. c #929BA5",
"L. c #999BA4",
"P. c #989BA5",
"I. c #959FA8",
"U. c #A49BA2",
"Y. c #B19AA1",
"T. c #96A0AA",
"R. c #9AA4AC",
"E. c #9EA7B0",
"W. c #9FA8B1",
"Q. c #A3ACB4",
"!. c #A7AFB8",
"~. c #A9AFB8",
"^. c #A7B0B7",
"/. c #ACB3BB",
"(. c #B1B9BF",
"). c #C7828E",
"_. c #DE969B",
"`. c #E39EA1",
"'. c #DCA6AA",
"]. c #E2A8AC",
"[. c #E2AEB2",
"{. c #B4BBC1",
"}. c #BBBEC5",
"|. c #BAC0C5",
" X c #BEC3C9",
".X c #C4C7CC",
"XX c #C6C9CF",
"oX c #C7CBD0",
"OX c #CACED3",
"+X c #CDD1D6",
"@X c #CFD3D8",
"#X c #D3D7DB",
"$X c #D5D9DD",
"%X c #D8DBDF",
"&X c #D9DCE1",
"*X c #DEE1E4",
"=X c #E1E3E6",
"-X c #E4E6E9",
";X c #E5E8EA",
":X c #ECEDEF",
">X c #EDEFF0",
",X c #EFF0F1",
"<X c #F4F5F5",
"1X c #FBFBFB",
/* pixels */
"1X>X=X*X*X*X-X-X*X-X-X-X-X*X-X*X*X*X;X*X;X;X;X*X;X-X-X-X;X;X;X;X;X;X:X;X;X*X;X;X*X*X*X*X*X*X*X*X*X*X*X*X*X*X*X*X;X*X*X*X;X*X*X*X*X-X*X*X*X-X;X<X",
"<X XW.R.R.R.R.E.E.E.Q.W.E.W.W.E.R.R.W.W.W.W.E.T.E.E.W.W.W.!.!.W.W.W.W.Q.!.Q.!.W.R.R.W.Q.W.Q.W.R.T.R.W.Q.Q.W.W.E.Q.W.R.W.^.Q.Q.^.Q.E.E.Q.Q.Q./.$X",
"<X{.T.H.H.K.G.H.v.T.H.H.v.T.T.v.G.G.H.H.H.K.H.G.G.H.H.T.I.R.I.H.K.c.H.H.H.H.K.H.H.H.H.I.K.K.I.I.H.c.G.H.H.H.c.c.H.H.H.I.I.I.I.T.T.H.c.K.H.H.W.#X",
"<X(.T.H.H.G.v.v.K.v.H.v.v.v.T.v.G.G.H.H.H.H.c.G.G.H.H.I.H.T.K.H.G.p.c.H.H.G.G.G.H.H.G.H.c.H.G.H.G.c.G.H.H.H.c.c.H.H.H.K.H.I.H.H.K.v.g.H.G.H.T.+X",
"<X|.T.H.H.H.g.v.v.T.K.H.v.v.K.H.H.v.H.G.H.H.c.H.T.K.H.T.K.T.H.H.H.p.c.G.H.H.G.G.G.G.G.H.p.G.H.H.H.c.G.G.G.G.v.c.H.H.H.H.H.G.G.G.v.v.c.v.v.T.T.+X",
"<X/.H.v.G.H.d.g.v.K.v.v.v.T.H.v.v.c.v.v.v.H.c.v.I.T.T.H.H.H.H.G.G.p.c.G.H.H.G.c.G.G.G.G.p.G.H.G.G.p.c.c.c.G.v.c.v.p.v.v.G.v.G.p.v.c.c.v.K.v.R.@X",
"<X/.H.v.v.H.G.v.H.H.K.T.v.T.K.H.H.H.H.v.v.H.v.v.G.G.H.v.c.G.G.c.G.c.G.G.H.H.G.G.H.G.G.G.H.G.p.G.G.G.p.p.p.c.v.G.G.c.p.G.v.v.G.v.v.c.v.K.T.v.R.$X",
"<X/.H.H.G.H.H.G.H.H.v.T.v.H.H.H.H.H.T.T.H.H.v.v.H.H.H.v.p.H.G.G.G.H.K.T.T.T.T.H.T.K.H.H.G.H.G.H.H.G.G.G.H.H.G.H.T.H.G.G.G.G.H.H.v.c.v.K.v.T.T.$X",
"<X/.K.H.H.K.H.v.v.H.H.K.v.H.H.H.H.v.T.K.H.H.v.c.H.H.H.c.c.H.H.H.G.G.H.H.I.K.I.K.T.H.H.G.G.G.H.G.H.v.v.K.H.H.H.H.T.K.H.v.c.v.H.H.H.c.c.H.H.H.T.#X",
"<X(.T.K.K.K.H.K.H.T.H.H.H.T.H.v.H.H.T.K.H.v.c.v.G.G.H.c.d.H.K.H.H.G.H.H.G.H.H.K.I.H.G.G.G.H.H.H.H.v.H.H.H.H.H.K.T.H.H.G.c.v.H.H.v.g.c.v.G.H.T.#X",
"<X(.R.T.T.T.K.T.T.T.T.T.H.H.H.H.H.H.K.H.H.H.v.c.v.G.v.v.c.K.H.H.H.H.G.G.G.G.K.K.I.K.H.G.H.H.G.I.K.c.H.H.K.H.K.K.T.K.H.H.v.v.H.H.H.v.v.H.G.v.R.$X",
"<X|.R.T.T.T.v.H.v.v.c.v.v.H.v.c.c.c.H.H.c.c.c.p.d.g.v.c.v.H.G.v.G.H.K.H.G.K.K.H.K.H.G.G.p.G.p.p.H.v.T.K.K.H.H.H.I.H.H.K.v.c.c.v.v.v.c.p.c.v.T.&X",
"<X|.R.I.H.K.v.H.H.H.H.H.v.H.T.v.v.p.v.v.v.H.v.c.v.H.H.v.G.I.K.I.I.T.T.T.T.T.K.H.K.K.K.G.G.G.G.H.K.H.H.T.K.H.H.v.H.H.H.K.K.K.K.K.H.H.K.T.H.H.T.*X",
"<X(.E.K.H.H.p.v.v.H.H.H.v.H.H.H.v.c.v.H.H.K.v.v.H.H.H.v.G.K.I.I.T.T.T.K.T.T.K.G.G.K.K.p.p.G.H.H.H.v.v.H.H.G.p.v.v.H.H.K.v.H.H.H.G.v.T.T.H.G.T.$X",
",X{.R.K.H.v.p.v.H.H.H.v.v.v.H.H.v.p.v.H.H.K.v.v.v.K.H.c.c.H.H.H.K.K.H.H.H.H.H.G.G.H.H.G.p.G.H.H.H.v.v.H.H.H.c.c.H.H.H.K.v.v.H.H.H.v.K.I.K.H.T.#X",
"<X|.E.K.H.H.g.v.H.H.H.H.v.H.H.H.v.c.T.T.T.T.T.H.K.v.H.v.c.G.G.G.H.K.H.G.G.H.K.H.G.G.H.G.G.G.K.I.H.H.H.v.H.H.v.v.T.T.K.T.H.H.H.H.G.v.K.I.H.H.T.#X",
"<X|.E.I.H.H.p.H.H.H.K.H.c.v.v.v.v.v.I.T.T.T.P.g.G.G.G.G.v.G.G.G.K.K.v.c.g.v.G.g.h.v.G.v.c.v.K.H.K.v.c.c.v.v.c.v.I.K.I.I.v.d.g.v.G.G.H.H.H.H.T.&X",
",X{.W.R.T.T.H.K.K.T.T.T.K.T.K.T.T.T.T.T.T.T.I.J.H.H.K.K.I.T.T.I.K.K.c.c.v.v.G.K.K.K.K.K.T.T.R.R.R.T.c.v.v.G.c.v.K.H.K.I.G.G.v.G.G.G.H.H.H.K.R.&X",
"<X/.T.I.I.H.p.H.H.K.H.G.v.T.K.T.T.v.K.H.K.H.v.G.H.K.K.H.K.R.I.H.H.v.v.G.H.H.H.I.T.K.H.K.T.T.R.R.R.I.v.H.H.H.v.c.H.H.K.H.G.K.H.K.H.G.G.H.H.K.R.#X",
",X^.I.H.H.H.p.H.K.H.G.v.d.v.v.H.v.v.H.K.H.H.v.G.H.H.H.H.G.T.H.H.v.v.H.K.H.H.H.K.T.K.H.H.H.K.H.T.T.K.v.H.G.G.g.g.H.H.H.H.v.H.H.K.H.c.G.H.H.H.R.#X",
",X/.I.H.G.G.p.H.H.H.H.G.c.G.H.G.G.v.H.K.H.H.G.G.H.H.H.H.H.I.H.H.v.v.H.K.H.H.K.K.I.H.H.G.v.K.v.H.H.K.G.H.G.G.c.g.G.H.K.H.v.G.G.G.H.G.c.H.K.H.T.#X",
"<X/.H.H.G.G.p.G.H.H.H.G.c.G.G.G.G.v.H.G.H.H.H.H.H.H.H.H.H.T.H.H.H.v.H.H.H.K.K.K.K.H.H.G.v.v.v.v.H.I.G.v.v.G.v.d.G.H.H.H.G.G.G.G.G.p.p.H.H.H.E.#X",
",XW.c.p.c.H.G.G.v.v.c.c.i.d.c.c.v.v.G.G.G.G.G.G.H.G.v.c.G.K.G.v.G.G.H.H.H.v.H.K.K.H.G.G.v.v.c.c.G.G.p.i.p.g.c.g.g.v.G.G.G.G.G.v.c.c.p.p.G.v.I.$X",
",X/.T.I.T.T.H.p.G.G.G.v.v.v.v.v.G.G.H.G.H.K.G.K.H.H.G.G.H.T.T.T.I.K.I.T.T.T.K.K.T.H.H.H.K.K.T.T.T.I.v.v.v.G.H.v.G.G.H.K.G.K.H.H.G.G.c.G.G.H.T.$X",
",X/.T.I.I.I.H.H.H.H.H.v.G.H.G.G.H.v.G.H.G.H.G.G.H.K.H.G.H.H.T.T.T.I.T.K.T.R.T.K.T.K.v.v.K.K.K.T.I.I.H.H.G.H.K.G.H.H.H.H.G.H.H.K.G.v.G.H.H.H.T.&X",
",X!.I.G.H.H.H.H.K.H.H.H.H.H.H.H.H.g.G.H.G.K.G.G.H.H.H.g.G.n.n.n.m.D.F.F.F.F.m.m.L.P.K.v.c.K.H.H.H.I.H.H.H.G.G.g.H.H.H.H.v.H.H.H.G.G.G.H.H.H.R.#X",
">X!.H.H.G.G.G.H.H.H.K.K.H.H.H.H.K.d.G.H.K.H.G.H.K.G.H.G.n.S.u.;.#.] y y p p $.w.r.).A.x.f.K.v.v.H.I.H.H.H.H.G.d.H.K.K.H.G.H.H.H.H.G.G.K.H.H.W.&X",
">X!.H.G.H.H.I.I.H.H.G.H.v.v.v.H.J.g.G.H.K.K.K.K.K.G.G.j.5.o.t J b G P b v D D 1 3 9 7 o.3.C.n.K.K.I.G.v.G.H.K.g.G.H.K.K.K.K.K.H.G.H.H.H.H.H.E.&X",
",X/.E.I.T.T.I.H.I.H.H.H.H.G.G.H.K.K.K.K.I.I.I.I.I.J.N.@.0 Q v z m m m b h b b h l v 1 > u ] 7.S.T.R.J.G.G.H.K.K.K.T.T.T.T.T.I.I.H.H.H.I.H.K.T.*X",
",X/.E.T.E.T.G.H.H.I.H.G.G.H.H.H.K.G.K.H.K.K.G.K.z.5.| Q C z I K m c m K b N P b K c b b G E ~ @.Z.P.H.H.H.H.K.G.H.H.H.K.H.H.K.K.H.v.G.H.K.K.T.$X",
">X^.I.H.H.I.G.H.H.H.H.H.G.H.H.H.H.g.H.H.H.H.G.j.>.| % H U L c n m L P z l b N b ( Y c c D T S < } N.J.H.H.G.G.c.H.H.H.H.v.H.H.K.H.v.H.H.H.H.R.$X",
">XQ.I.G.H.H.H.H.H.H.H.H.H.H.H.H.H.d.H.H.K.H.j.-.i $ B Z z j j x c c z K P l b R ( ) c Z Z z T J 8 [ N.P.H.H.G.c.H.H.H.H.v.v.H.H.H.v.G.K.H.H.E.%X",
":XQ.H.v.v.H.H.H.H.H.H.H.H.v.v.H.v.d.c.K.n.n.-.u 3 % Z A g h d m Y R K z z C C T U C g Z L z R P % # +.l.G.H.v.d.v.H.G.H.g.H.H.G.v.c.v.H.H.G.T.%X",
",X^.G.v.v.c.H.K.H.G.H.H.v.v.v.H.v.g.v.G.T.V.] v o o A A j s b R ( ( / f g K z C C C z z Y c I c z V 8 =.j.h.v.d.h.v.G.G.H.K.G.g.c.v.G.H.v.v.T.%X",
",X^.T.H.H.v.H.K.T.T.T.K.K.T.T.T.T.I.I.I.n.<.E v V C A Y K h b W ( I c s g z z k z z C K R z L j b V $ r V.K.H.v.G.G.G.H.g.G.K.K.H.H.v.K.T.T.E.%X",
",X^.I.K.H.v.v.K.H.K.T.K.K.H.K.T.I.K.I.K.B.u F b P U C ( W h v D z m s g K C k l C U P z R c M z z v H 8 ,.n.H.g.G.G.G.H.d.G.H.G.H.c.c.H.v.H.T.#X",
",XQ.K.H.H.H.c.H.H.H.H.H.H.H.H.H.K.K.I.n.4.Q T h P ( c Y R l . h c c z z z P C K C g l z ( z m m m n K $ o.Y.K.h.H.K.H.K.g.v.G.G.v.c.c.H.H.H.T.#X",
":X^.K.H.H.v.c.v.v.G.G.H.H.v.v.v.v.K.I.b.@.D z j x I L U Y l f z m x c L z Z C f C P Z z I j z j n d K S e '.J.G.I.I.I.I.v.G.H.H.H.v.p.H.H.H.T.$X",
",X^.H.c.p.g.c.c.c.c.v.H.v.v.v.v.v.G.K.k., k j N M M K z Z z z L ( R c m Y z z C l z z z z f j j n n b F w `.n.h.K.H.G.H.d.G.G.G.H.c.p.v.v.v.T.$X",
",X^.v.c.c.v.v.v.v.H.H.H.H.v.H.v.v.v.G.k., h j / / x z z k Z z ( ( I z z L z k T C U D z z j l j N R D 3 7 `.L.h.H.G.v.K.K.K.K.I.T.H.v.K.H.v.R.$X",
"<X(.I.G.G.H.G.H.H.H.H.H.H.H.K.H.v.v.H.z.r z x / / / L j f c c ( I c m j m m l z K K z l K z m j R R l $ 7 `.L.g.G.H.H.K.I.I.I.I.T.H.c.H.H.H.R.$X",
",X(.T.H.G.H.c.G.H.v.H.v.v.H.H.H.G.G.H.z.| K j / / / R P g c c Z b m L z j K z l z z K z T C K z I Z o # q ].J.g.G.G.H.H.K.K.H.H.K.v.c.v.H.H.T.#X",
"<X/.T.H.H.H.c.v.v.T.K.v.v.v.H.H.G.v.H.k.$.Y j I / / m z g c L c j m j m z K K z z z b K W D K l c k % 8 { [.J.v.H.G.G.H.G.G.H.G.v.v.c.H.H.H.R.#X",
"<X(.H.v.G.H.p.c.v.T.v.v.v.T.H.v.v.g.G.f.*.! c N / L c Z z g L m j g g m g l j D D z z T R v K k h k V $ @.'.J.G.v.g.v.v.v.G.v.v.v.v.c.v.v.H.T.$X",
"<X/.H.v.v.H.H.H.K.H.K.T.T.T.K.v.K.v.g.s.%.^ D m L c L c L M c L / I N L K K m j z f z D K z k f z D S 1 e _.x.h.G.G.g.G.v.v.c.g.v.v.c.v.v.H.R.$X",
"<X/.K.H.G.H.K.T.T.H.H.K.v.H.H.T.v.c.v.v.8.| F d j z c c / ` M c m m m m b j z j K z b z C D v k b R T % @ e.x.K.K.H.G.H.G.v.G.G.K.K.v.H.H.H.R.#X",
"<X/.T.G.G.H.H.T.T.H.H.H.v.K.H.H.K.v.v.T.x.=.6 h f z L L / / / / L j g j K m b K D P f l z C z k P W T O 2 @.D.G.T.H.G.G.H.H.G.H.K.v.v.K.H.H.R.#X",
"<X(.T.H.G.H.v.I.K.K.v.H.v.v.K.K.v.v.H.T.v.M.] + o C L Y L Y / ( I z j K ( L m K j h h C T b D D P W ~ w.q.: 5.J.T.H.G.G.G.K.K.H.K.K.v.v.H.K.R.#X",
"<X/.T.G.G.H.v.K.K.H.H.G.v.G.H.H.T.H.K.I.H.H.M.5 + O D C z b z z z z z Y ) L c K s s j L ' R c D J ^ 4.z.C.X. .b.T.H.H.G.H.I.P.I.m.K.v.v.H.K.R.$X",
"<X^.H.c.v.v.c.G.H.G.v.H.g.v.c.v.p.H.p.K.H.p.v.9.; + V D C z z o o j Y ( / / x N h s j Y ' T z v a :.a.g.h.M.[ >.a.n.n.J.J.m.Z.8.2.t.f.h.v.v.T.$X",
"<X/.T.H.H.G.d.v.H.H.G.v.v.H.H.H.H.p.H.p.H.H.p.c.3.- $ B Z C X X X X b _ ) L m N n h c U R T + < ;.F.K.v.K.n.>.: O.7.B.Z.6.&.q - *   2.v.H.T.R.#X",
"<X^.I.H.H.G.d.v.H.H.H.v.g.H.H.H.K.H.H.H.H.H.H.G.x.3.} $ O z v F + v h m R c m m z z K D E 0 5 4.D.P.v.K.G.K.a...= & = = = 5 & : 5.j.h.H.H.H.T.#X",
"<X/.K.H.G.G.g.G.K.H.G.G.g.G.H.G.G.p.K.K.H.H.H.G.H.n.y.[ 8 1 D D K T k o v v G l k K V $ y +.M.n.K.H.v.H.H.v.h.a.9.>.X... .1.M.a.v.v.v.K.H.H.T.#X",
"<X/.I.G.H.G.d.G.H.H.H.G.g.G.H.H.G.G.K.K.H.H.H.G.H.H.J.z.3.{ t ~ ~ E ~ 4 # < 4 0 0 0 r *.V.n.v.H.H.K.H.H.H.H.v.g.v.n.x.n.f.h.n.v.H.v.v.v.K.K.R.#X",
"<XQ.G.h.v.G.g.v.G.G.v.v.p.v.v.v.G.G.H.G.G.p.H.G.H.G.v.G.n.D.B.V.0.:.;.;.&.&.+.X.%.,.Z.l.v.v.p.v.H.H.d.d.g.v.g.d.c.v.v.G.v.v.v.v.c.p.p.c.G.G.T.$X",
",X~.K.G.H.K.v.v.v.v.v.v.d.g.g.c.H.p.G.G.H.T.K.H.H.H.v.v.H.I.J.L.L.m.m.m.m.U.U.U.U.J.K.K.H.K.K.H.K.K.c.g.d.c.v.v.v.v.H.H.T.H.K.v.v.c.c.v.v.v.T.$X",
",X(.R.T.T.T.H.v.G.G.H.v.v.G.G.H.I.G.H.H.H.H.K.K.H.K.H.v.H.T.T.T.I.I.I.T.T.R.T.T.T.K.H.H.H.T.T.T.R.T.H.H.H.H.H.G.H.H.K.v.v.K.K.H.H.v.v.H.v.H.T.#X",
",X^.K.H.K.T.H.H.H.H.H.G.G.H.H.G.I.p.H.H.H.H.p.H.H.H.H.v.G.H.K.K.K.K.K.H.K.K.K.K.T.K.v.v.v.H.H.K.K.T.H.H.H.H.H.v.H.H.K.v.v.K.H.H.v.v.v.K.K.H.R.$X",
":X^.K.H.v.H.H.H.K.H.H.H.H.H.H.G.H.p.G.H.K.K.p.H.H.H.H.c.v.H.H.v.G.G.G.H.G.G.H.K.K.H.G.v.v.H.H.v.H.T.H.H.H.G.G.p.v.H.K.K.v.v.H.H.H.v.v.K.H.H.W.$X",
">XQ.H.v.v.H.H.H.H.H.H.H.v.v.v.H.G.p.v.H.H.H.H.H.H.G.v.c.c.v.v.v.G.G.G.v.v.G.H.K.K.H.G.v.c.v.v.v.v.K.G.G.v.H.v.p.v.K.H.H.v.H.H.v.v.c.v.H.H.v.R.$X",
",X^.v.c.c.v.G.c.v.c.c.v.c.c.c.v.v.p.G.H.G.G.G.v.v.v.c.c.g.c.d.c.c.v.G.G.v.G.G.G.K.H.v.H.g.g.p.p.g.v.v.c.v.v.v.c.G.H.v.v.v.H.v.v.v.v.v.H.K.v.K.%X",
"<X^.H.H.G.H.H.v.v.v.H.H.c.v.v.H.G.H.T.I.H.G.G.v.H.K.H.c.d.v.v.G.G.G.I.T.T.T.K.I.T.H.H.H.v.v.v.v.v.v.v.v.G.H.G.H.T.K.H.H.v.H.H.K.v.c.v.K.K.H.T.#X",
",X(.K.H.H.K.K.v.v.H.H.K.v.K.H.H.G.G.T.I.G.G.v.v.H.H.G.c.c.G.H.H.G.v.H.H.I.T.K.I.T.H.H.v.v.H.H.v.H.v.v.K.H.H.H.H.T.K.H.H.c.G.H.H.H.c.v.v.H.H.T.#X",
"<X(.T.K.H.K.K.H.K.H.H.K.H.K.H.H.H.G.I.K.H.G.c.v.G.G.H.c.v.H.H.G.H.v.H.G.G.H.H.K.T.H.H.v.v.H.H.v.K.v.v.K.H.H.H.H.T.K.H.v.c.v.v.H.v.c.c.H.H.v.T.#X",
"<X|.E.T.T.I.I.I.T.T.I.K.H.H.H.G.H.H.I.H.H.G.G.H.G.G.H.G.p.K.H.H.K.G.G.v.G.G.H.K.I.H.H.G.v.K.v.v.K.c.G.H.H.H.I.H.T.H.H.H.v.G.v.H.K.c.v.v.H.H.T.$X",
"<X(.T.I.I.I.G.G.H.v.v.H.v.H.G.v.v.v.H.H.c.G.p.p.p.p.G.p.G.H.G.G.v.v.v.c.c.v.G.G.K.G.v.v.c.c.c.c.K.v.J.K.K.G.G.K.K.K.H.H.c.d.g.c.v.c.d.d.c.v.I.$X",
"<X|.R.I.I.I.G.G.H.G.G.G.v.H.H.H.G.c.v.v.c.G.c.c.K.G.G.c.G.I.I.I.K.T.K.H.K.K.H.G.H.H.G.v.v.v.v.H.I.K.K.I.I.K.G.G.H.G.H.K.G.G.K.H.K.K.K.K.H.H.R.%X",
"<X|.R.I.G.H.c.p.H.H.H.H.v.H.K.H.c.p.c.G.G.H.G.v.H.I.H.G.G.K.I.I.T.T.T.T.T.T.K.H.H.H.G.v.c.H.H.H.G.v.v.H.H.G.v.g.v.H.H.K.G.H.H.K.H.v.P.I.K.H.T.$X",
",X|.E.I.H.G.p.p.G.H.H.v.p.H.H.G.G.p.G.G.H.H.H.v.G.H.H.G.p.H.H.I.T.H.H.H.K.H.H.G.H.H.v.v.c.v.H.H.H.v.v.G.H.G.v.v.H.H.H.H.v.G.H.H.G.v.K.T.H.H.T.#X",
"<X|.E.H.G.G.p.G.G.H.H.v.H.G.G.G.H.p.I.I.I.I.K.H.H.H.H.p.G.H.G.G.H.H.H.H.H.H.H.H.G.G.H.v.g.H.H.K.H.G.G.G.G.H.v.v.I.K.K.T.H.G.G.H.H.v.K.K.H.H.I.#X",
"<X|.W.E.R.I.G.H.T.R.T.I.H.H.I.I.I.H.R.E.E.E.T.H.H.I.T.I.H.T.I.I.T.T.T.K.K.T.T.H.K.K.T.K.v.P.T.T.T.I.H.K.I.I.H.I.E.W.W.E.I.H.K.I.T.K.T.E.R.T.W.%X",
"<X*X@X+XoX+X+X XoXoX+X+XoX X+X XOXOX@X+X+X+X+X X XoXoX+XoXoXoX XOX+X+X+XOXOX+XoXXXXXOX+X@XOX+X+XOXoX}.}.}. X.XoX+X+XOXOXXX X X.XXX+X+X+XOXOX+X:X"
};
