/* XPM */
static char *result[] = {
/* columns rows colors chars-per-pixel */
"72 72 204 2 ",
"   c #040301",
".  c #0A0503",
"X  c #0D0A05",
"o  c #080808",
"O  c #0B0A09",
"+  c #120601",
"@  c #130B06",
"#  c #1A0C05",
"$  c #100708",
"%  c #130D0A",
"&  c #1B0E0A",
"*  c #14110D",
"=  c #1B1309",
"-  c #1B120B",
";  c #0F0F10",
":  c #0F1010",
">  c #141413",
",  c #1B1613",
"<  c #191817",
"1  c #1B1C1C",
"2  c #210F06",
"3  c #210E09",
"4  c #23130B",
"5  c #28160B",
"6  c #22180F",
"7  c #231B13",
"8  c #261B16",
"9  c #35250E",
"0  c #262119",
"q  c #2B241B",
"w  c #352619",
"e  c #3C2B1B",
"r  c #3E321B",
"t  c #1E1F20",
"y  c #1E2123",
"u  c #232424",
"i  c #2C2524",
"p  c #2B2924",
"a  c #2B2C2C",
"s  c #352C27",
"d  c #2D302A",
"f  c #3B3325",
"g  c #3E362E",
"h  c #393736",
"j  c #3D3B3A",
"k  c #412E19",
"l  c #423217",
"z  c #43321B",
"x  c #443425",
"c  c #493525",
"v  c #4A3925",
"b  c #4B3729",
"n  c #43392D",
"m  c #4A3A2C",
"M  c #503E2E",
"N  c #423A34",
"B  c #423C3A",
"V  c #4C4127",
"C  c #56452A",
"Z  c #5B4C2D",
"A  c #4A4739",
"S  c #564735",
"D  c #54463B",
"F  c #594739",
"G  c #544A3C",
"H  c #5C4A3C",
"J  c #5F5134",
"K  c #5F513B",
"L  c #604E3E",
"P  c #675736",
"I  c #61513C",
"U  c #6E5C3B",
"Y  c #705C37",
"T  c #3C3F41",
"R  c #3F4244",
"E  c #414344",
"W  c #4A4A49",
"Q  c #544C43",
"!  c #5A4E42",
"~  c #544D4C",
"^  c #584F4C",
"/  c #5B5343",
"(  c #5A554B",
")  c #59584D",
"_  c #4B4E51",
"`  c #524E50",
"'  c #4E5154",
"]  c #5A5554",
"[  c #585755",
"{  c #5D5C5B",
"}  c #625443",
"|  c #695949",
" . c #735C4A",
".. c #655D53",
"X. c #5F605C",
"o. c #76624D",
"O. c #686459",
"+. c #7B6352",
"@. c #786957",
"#. c #746A5B",
"$. c #7C715D",
"%. c #585D63",
"&. c #5F6467",
"*. c #656769",
"=. c #65696D",
"-. c #736C60",
";. c #7B6E61",
":. c #7D7163",
">. c #696E72",
",. c #6E7378",
"<. c #72767C",
"1. c #75797D",
"2. c #7D7D7F",
"3. c #84735A",
"4. c #877764",
"5. c #927D67",
"6. c #817F77",
"7. c #958366",
"8. c #94836A",
"9. c #98846A",
"0. c #968A71",
"q. c #9C8C75",
"w. c #A6927A",
"e. c #777980",
"r. c #7A7D83",
"t. c #7B8187",
"y. c #7D848C",
"u. c #7E8792",
"i. c #7F8893",
"p. c #848584",
"a. c #898887",
"s. c #83868A",
"d. c #838A8F",
"f. c #8A8A8A",
"g. c #9B9489",
"h. c #838C95",
"j. c #888E96",
"k. c #858E99",
"l. c #888F9A",
"z. c #879097",
"x. c #899097",
"c. c #87919B",
"v. c #8A949E",
"b. c #A69784",
"n. c #AC9A82",
"m. c #B39E87",
"M. c #A09D99",
"N. c #B9AB8D",
"B. c #BDAB94",
"V. c #BEAB9A",
"C. c #8C96A0",
"Z. c #8E99A2",
"A. c #919BA5",
"S. c #959BA5",
"D. c #959FA8",
"F. c #96A0AA",
"G. c #9AA4AC",
"H. c #9EA7B0",
"J. c #9FA8B1",
"K. c #A3ACB4",
"L. c #A6ADB7",
"P. c #A7B0B7",
"I. c #ACB3BB",
"U. c #B1B8BE",
"Y. c #C4B38E",
"T. c #C1AB95",
"R. c #C1AC9A",
"E. c #C6B594",
"W. c #C9B9A1",
"Q. c #D7C7AC",
"!. c #D8C9B4",
"~. c #DED2B9",
"^. c #E4D3B4",
"/. c #E9D6B5",
"(. c #E4D3BB",
"). c #EADBBC",
"_. c #B4BBC1",
"`. c #BAC0C5",
"'. c #BEC3C9",
"]. c #C7CBD0",
"[. c #CDD1D6",
"{. c #CFD3D8",
"}. c #D3D7DB",
"|. c #D5D9DD",
" X c #E7D6C1",
".X c #EADBC1",
"XX c #EEE1C7",
"oX c #F6E6C6",
"OX c #F4E5CB",
"+X c #F6E9CD",
"@X c #FAEBCD",
"#X c #F6E7D2",
"$X c #F6E9D2",
"%X c #FAEBD2",
"&X c #D9DCE1",
"*X c #DEE1E4",
"=X c #E1E3E6",
"-X c #E4E6E9",
";X c #E5E8EA",
":X c #ECEDEF",
">X c #EDEFF0",
",X c #EFF0F1",
"<X c #F4F5F5",
"1X c #FBFBFB",
/* pixels */
"1X>X=X*X*X*X-X=X=X=X=X-X=X*X*X=X;X;X;X=X;X;X;X;X;X;X=X;X;X;X;X;X;X;X;X;X;X;X;X=X-X*X*X-X-X*X*X*X*X*X*X-X*X*X*X-X;X*X*X*X*X*X*X*X&X*X=X=X=X=X;X;X",
"<X'.J.G.G.G.H.G.G.K.K.H.J.K.J.H.J.P.H.H.H.H.J.P.H.H.J.H.J.P.P.J.J.H.P.P.P.P.J.H.G.G.J.J.J.J.J.G.G.G.H.J.K.J.J.H.J.H.H.J.P.P.P.P.P.H.H.H.J.J.P.&X",
"<X_.F.Z.Z.A.C.C.Z.A.Z.Z.v.F.F.Z.H.i.H.i.i.i.H.H.i.H.i.H.F.F.H.i.i.i.J.F.F.J.i.F.Z.Z.Z.F.Z.Z.F.F.v.v.v.Z.Z.Z.c.c.Z.Z.Z.A.F.F.D.F.F.Z.i.Z.i.F.H.{.",
"<XU.F.Z.C.C.v.v.Z.Z.Z.Z.v.Z.A.v.i.G.i.H.i.J.i.i.H.i.H.i.F.F.F.F.i.i.i.H.i.i.F.i.Z.Z.Z.Z.v.v.v.Z.Z.v.v.Z.Z.C.c.c.Z.Z.A.A.Z.Z.Z.Z.D.D.i.Z.F.F.F.{.",
"<X`.F.Z.Z.Z.k.v.v.F.Z.Z.v.v.Z.Z.F.i.G.i.Z.A.i.Z.H.i.F.F.i.J.i.F.H.i.F.i.H.i.F.i.Z.Z.C.Z.v.v.A.v.Z.v.C.C.C.C.v.c.C.C.Z.Z.Z.C.C.C.Z.Z.u.Z.D.F.F.{.",
"<XU.Z.v.C.Z.k.k.v.A.v.Z.v.F.Z.v.i.i.i.F.i.G.i.Z.H.J.H.J.i.F.F.H.i.i.i.H.i.H.i.F.v.v.v.Z.z.Z.v.v.c.z.h.c.v.v.v.v.v.c.c.c.C.v.c.c.Z.i.i.F.Z.i.F.{.",
"<XI.Z.v.v.Z.C.v.A.v.Z.F.A.A.A.Z.A.A.G.i.A.A.i.A.i.H.i.i.i.i.F.i.F.i.H.i.i.J.H.i.Z.v.C.Z.v.v.v.z.v.C.h.k.i.v.v.C.v.c.c.v.v.v.C.c.i.Z.i.Z.D.Z.H.&X",
"<XP.A.C.C.Z.Z.C.Z.Z.Z.A.v.Z.Z.Z.G.i.H.H.i.A.Z.D.H.i.H.i.i.H.i.i.i.i.i.i.F.i.F.i.v.z.z.z.i.i.i.z.z.i.i.h.C.Z.v.Z.F.A.C.Z.C.C.Z.Z.D.i.D.Z.D.Z.F.&X",
"<XP.D.Z.Z.A.C.C.v.F.Z.F.v.Z.Z.Z.Z.Z.D.A.Z.Z.D.i.Z.Z.Z.C.i.,.R R %.R R R R R R R R R R R R R R R R R R _ z.Z.v.Z.F.Z.C.C.c.v.Z.Z.Z.u.Z.Z.Z.Z.F.{.",
"<X_.F.A.A.A.Z.A.Z.Z.Z.A.v.F.A.v.Z.Z.D.A.D.i.i.i.C.C.Z.i.e.R > o 1 : : : o O O O O O O O O X X O o o o < r.v.A.A.F.Z.Z.C.c.v.C.Z.F.i.i.Z.Z.Z.F.{.",
"<X_.G.F.F.F.A.D.F.F.F.A.Z.A.Z.v.F.D.F.A.Z.Z.i.Z.C.C.Z.u.y O o o o o o o           o o   o             > 1.Z.A.A.F.A.Z.Z.v.v.C.Z.D.i.i.Z.Z.Z.H.|.",
"<X_.G.F.D.F.C.C.v.v.v.v.v.Z.v.v.i.i.Z.A.i.Z.Z.i.i.i.i.t.> o > < > > < > X       o X * > < : o     o   1 t.v.Z.A.D.A.Z.Z.Z.c.v.v.Z.D.i.u.i.Z.F.&X",
"<X_.G.A.A.A.v.C.Z.Z.Z.Z.v.A.A.Z.C.i.C.i.v.C.v.v.Z.Z.Z.u.y o o > > > * > * X X = 7 6 X X * * : : ; ; 1 _ z.Z.v.c.v.Z.Z.Z.Z.A.A.F.F.i.H.F.D.F.H.&X",
"<X`.H.A.C.C.i.C.Z.Z.Z.Z.v.v.Z.Z.Z.i.C.C.C.A.C.v.Z.Z.C.c.=.a ; R =.>.>.*.O.d = A $.) 6 X R &.=.=.=.&.<.z.Z.Z.c.c.C.Z.Z.Z.v.v.A.v.Z.Z.F.F.Z.i.F.|.",
",X_.H.A.Z.C.i.c.C.Z.Z.v.v.v.Z.Z.C.i.C.Z.Z.A.C.v.C.Z.C.c.y.W y 1.C.Z.v.v.z.X.7 / b.g.q > 1.x.C.v.v.c.c.Z.Z.Z.c.v.Z.Z.Z.D.v.v.Z.Z.Z.i.Z.F.Z.Z.F.|.",
"<X`.G.A.A.A.i.v.Z.Z.Z.Z.v.Z.Z.Z.Z.i.D.F.F.F.D.C.Z.C.Z.v.i._ 1 t.Z.Z.Z.C.z.X.0 $.~.!.n 7 2.v.A.A.Z.C.C.C.Z.Z.c.v.D.F.D.D.D.Z.Z.v.F.i.D.F.Z.Z.F.}.",
"<X`.H.D.A.Z.i.Z.A.A.A.Z.i.C.C.C.C.c.D.F.F.F.A.c.C.C.C.C.i._ t t.Z.Z.C.v.i.X.0 7.XX~.I w p.v.A.A.A.v.c.c.v.C.k.C.A.A.A.D.C.k.k.l.Z.C.Z.Z.Z.Z.F.|.",
",X_.H.G.F.D.Z.A.A.D.D.D.A.D.D.D.F.A.F.F.F.F.D.C.C.Z.Z.A.C.' u y.D.Z.v.i.i.{ 0 7.XX~.U r a.D.G.F.G.F.c.v.C.C.k.C.A.Z.A.D.C.C.C.C.Z.Z.Z.Z.Z.Z.H.&X",
",X_.D.A.D.Z.i.Z.Z.A.A.Z.C.A.D.A.D.C.C.Z.A.A.C.C.Z.D.D.Z.v.' u t.Z.v.C.Z.i.&.q w.OX~.U z f.D.F.G.G.D.v.Z.Z.C.c.v.Z.Z.A.A.C.A.C.A.Z.c.Z.Z.Z.Z.H.}.",
"<XP.A.Z.Z.Z.i.Z.A.A.Z.i.i.Z.Z.Z.C.C.Z.Z.C.C.v.C.Z.Z.C.C.h._ 1 <.z.v.Z.A.v.X.f B.$X(.U l s.A.A.A.D.A.v.Z.C.C.k.k.Z.Z.Z.C.C.C.A.Z.Z.Z.c.Z.Z.Z.F.{.",
"<XP.D.Z.Z.i.i.D.A.Z.Z.Z.i.Z.Z.Z.C.v.Z.A.C.C.C.C.A.C.Z.C.y.a ; h =.i.A.A.v.X.r N.+X~.U r p.v.A.Z.Z.A.C.C.C.C.k.k.C.A.A.Z.C.C.C.C.Z.Z.u.Z.Z.Z.F.}.",
"<X_.A.D.Z.C.i.Z.Z.A.Z.Z.i.C.Z.A.C.v.Z.C.C.A.A.C.Z.C.C.Z.>.>   o t y.A.Z.z.X.r N.+X~.U r p.v.v.v.Z.D.C.C.C.C.k.k.C.C.C.C.v.C.C.C.Z.u.c.Z.Z.Z.H.}.",
">XH.i.i.i.Z.Z.i.i.Z.i.C.i.C.i.i.v.v.C.v.C.v.A.C.C.C.C.i.=.:     1 i.Z.Z.v.[ r N.+X^.U r p.v.v.v.Z.Z.h.u.u.i.v.k.k.C.C.C.Z.C.C.v.u.Z.i.i.Z.Z.D.|.",
";X_.F.D.H.F.Z.Z.Z.Z.D.Z.i.C.C.C.C.v.C.C.A.A.C.A.A.Z.C.c.e.y > < d i.D.F.v.O.V E.+X^.Y r p.A.D.D.F.A.C.l.v.C.Z.C.C.C.A.Z.C.A.Z.C.Z.Z.Z.i.Z.Z.F.|.",
":X_.A.A.D.D.Z.C.Z.Z.Z.C.C.C.C.Z.A.v.C.A.Z.C.C.C.A.A.Z.v.v.j.h.z.v.A.A.A.C.X.J Y.oX/.Y r p.A.A.D.F.F.Z.C.C.Z.C.C.C.C.Z.Z.C.C.Z.A.Z.Z.Z.Z.Z.Z.F.|.",
":XP.D.Z.Z.Z.Z.A.A.Z.Z.C.Z.C.Z.Z.C.k.C.C.A.C.v.C.Z.Z.C.v.v.A.Z.Z.A.Z.Z.Z.z.O.J Y.oX^.Y l p.A.Z.A.Z.A.A.Z.Z.C.C.c.C.Z.Z.Z.C.C.Z.Z.D.i.Z.Z.Z.Z.H.}.",
":XL.Z.Z.C.Z.Z.Z.A.Z.Z.D.C.C.Z.Z.A.i.C.A.A.A.C.C.Z.Z.Z.v.v.Z.Z.v.Z.Z.Z.C.i.O.J E.oX^.Y l p.Z.v.v.Z.F.C.Z.Z.Z.C.k.Z.A.A.A.C.Z.Z.Z.Z.Z.Z.Z.Z.Z.H.|.",
">XP.Z.Z.Z.Z.D.A.Z.Z.C.Z.C.C.C.Z.A.k.C.C.A.C.A.A.A.C.C.C.C.Z.C.A.Z.A.Z.Z.z.) J E.oX^.Y l p.v.Z.Z.A.A.C.C.C.Z.C.k.C.Z.A.A.Z.A.D.Z.Z.Z.Z.Z.Z.Z.H.|.",
",X_.H.D.D.F.D.Z.A.A.Z.A.C.C.C.C.A.A.A.A.D.D.D.G.D.D.A.A.D.F.F.F.F.F.F.F.Z.) Z Y.oX/.Y l f.F.F.F.G.F.Z.C.C.C.F.A.Z.F.F.G.F.F.A.F.F.Z.Z.Z.F.Z.F.&X",
",XP.H.F.D.H.Z.Z.Z.Z.Z.C.C.Z.Z.Z.A.C.Z.A.A.A.Z.A.A.A.Z.C.C.c.c.v.z.z.z.z.i.J J Y.oX^.Y l a.F.F.F.G.A.Z.Z.Z.Z.A.C.A.Z.Z.Z.C.D.A.Z.D.i.Z.Z.Z.Z.H.}.",
":XP.D.Z.A.A.Z.Z.A.Z.Z.Z.C.Z.Z.Z.A.k.C.C.C.C.C.C.Z.Z.C.u.&.a u u u d p u p < Z Y.@X/.Y k *.Z.Z.A.A.D.Z.Z.Z.Z.C.C.Z.Z.Z.Z.C.Z.Z.Z.Z.Z.Z.Z.Z.Z.F.&X",
":XL.A.Z.Z.Z.Z.Z.A.Z.Z.Z.C.Z.Z.C.C.k.C.A.A.A.v.C.C.u.>.y ; O > u p p q d p r P Y.).Q.Y 9 i j.Z.Z.A.A.A.Z.C.Z.C.i.Z.Z.Z.C.C.C.Z.Z.D.i.Z.Z.Z.Z.H.&X",
";XL.A.Z.Z.D.D.i.F.i.i.D.D.i.i.A.A.r.v.C.A.Z.l.r.>.u > X * s E ^ O.#.#.#.O./ Z 3.n.q.Z 9 , h.v.v.A.A.v.v.C.C.C.i.C.C.C.C.C.C.Z.C.Z.u.Z.Z.Z.Z.F.&X",
";XL.Z.i.i.i.A.D.D.D.F.i.Z.C.Z.Z.Z.k.C.A.A.l.%.T > * q j A ) -.-.O.O.#.#...K C Z P H 8 # , j.A.v.A.A.j.j.i.v.C.k.k.C.C.C.C.Z.C.v.u.Z.Z.Z.Z.Z.D.&X",
":XP.D.A.D.Z.A.D.F.F.D.D.D.D.D.F.D.D.F.D.C.u.y ; o q g V A / ..N 6 6 = 6 6 4 5 5 5 5 + + 8 v.D.A.Z.C.C.C.C.C.C.l.C.v.C.C.v.Z.Z.Z.Z.Z.Z.Z.Z.Z.H.&X",
",XP.F.D.F.i.i.D.i.D.D.D.A.A.D.D.D.Z.F.A.A.u.y o o - 5 = = , 3 $ X X @ @ @ + 2 l c z 2 # _ A.A.v.C.v.C.C.C.C.C.v.C.C.C.Z.h.C.Z.Z.Z.Z.u.Z.Z.Z.F.}.",
",XP.i.F.Z.i.Z.D.F.D.i.G.C.A.C.A.Z.A.D.D.C.h.a $ O & 5 5 5 M c 3 . $ $ 6 8 - e @.4.:.s 8 6.D.A.Z.C.v.C.Z.Z.Z.C.l.Z.A.Z.A.k.v.C.C.Z.u.c.Z.Z.Z.F.{.",
",XK.J.i.Z.D.i.F.i.F.i.D.C.A.i.A.Z.A.D.A.S.C.r.h i 4 s  .3.5.| 3   $ B s.s.B k 3.N.W.+.A p.D.A.Z.C.C.C.C.C.Z.C.v.D.D.F.A.l.C.Z.C.Z.Z.c.Z.Z.Z.F.&X",
"<XP.i.i.i.A.i.A.A.i.D.i.C.i.C.i.v.C.Z.Z.C.C.C.h.r.s c m.!.5.| 3 . % ` h.d.~ k 5.Q. X8.K a.A.A.Z.C.v.l.v.v.v.k.l.A.Z.C.Z.k.C.C.C.Z.u.u.Z.i.Z.F.}.",
"<X`.i.G.i.i.D.i.A.i.D.H.Z.C.A.C.v.v.C.C.l.C.C.l.h.b b R. Xw.| 3   $ W k.j.^ e b.XX.X8.K a.F.A.A.C.C.C.C.C.C.v.v.Z.C.C.Z.A.Z.A.F.F.Z.Z.Z.Z.Z.F.&X",
"<XP.F.i.F.i.G.i.Z.Z.Z.C.C.Z.A.Z.v.v.C.Z.Z.A.C.i.d.N b T.XXR. .3   O ~ k.k.^ e m.OX.X9.L a.Z.Z.A.D.i.Z.Z.Z.Z.i.C.Z.C.Z.Z.F.F.A.F.F.Z.Z.Z.Z.Z.H.}.",
"<XU.F.F.i.H.i.G.Z.Z.Z.C.C.Z.A.C.C.v.C.A.Z.Z.v.Z.s.N b T.%X!. .3   $ W k.k.] e w.OX).7.L a.Z.Z.A.Z.Z.i.Z.Z.Z.C.i.C.C.Z.Z.A.A.Z.A.Z.Z.u.Z.Z.Z.F.{.",
"<XU.D.H.H.i.i.i.Z.A.Z.C.v.C.A.Z.C.C.A.C.C.A.i.D.j.N c T.%X(.3.3   O _ z.j...k n.oX).7.I p.Z.Z.A.Z.i.Z.Z.C.Z.C.C.Z.C.C.C.C.C.C.C.Z.i.Z.Z.Z.Z.F.&X",
"<XI.i.i.i.H.i.G.C.Z.C.C.C.C.C.v.v.i.C.v.C.D.i.C.j.N b B.OX(.3.3   o j j.j.] b T.oX/.7.I p.v.Z.v.Z.Z.i.C.i.C.i.C.C.k.v.v.v.C.c.C.Z.Z.u.i.Z.Z.F.}.",
",XU.J.i.i.J.i.J.A.A.Z.D.D.A.C.C.D.C.v.i.i.C.c.v.u.n c B.OX(. .3     < e.j.{ F ^.@X).7.P a.Z.Z.v.Z.Z.i.Z.i.Z.C.C.C.C.i.C.C.C.i.C.Z.Z.u.Z.Z.Z.F.&X",
",X_.H.i.J.i.i.J.D.Z.Z.A.Z.Z.A.D.A.i.C.C.A.Z.C.i.u.n c V.#X X .3     > <.k...L (.@X).7.I a.Z.A.A.Z.i.Z.A.Z.Z.i.A.D.Z.Z.Z.C.c.C.C.Z.Z.Z.Z.Z.Z.F.{.",
",XU.i.H.H.i.i.P.A.Z.Z.C.C.A.Z.Z.Z.v.Z.Z.Z.Z.C.C.s.N c T.#X(.3.3 .   > e.j.] ! (.@X).7.I p.v.A.v.Z.C.i.D.Z.Z.i.Z.D.Z.C.C.Z.Z.C.Z.Z.Z.Z.Z.Z.Z.F.&X",
",XU.H.H.i.H.i.J.D.Z.Z.C.v.C.A.Z.Z.v.Z.A.Z.Z.C.C.h.N b T.#X(.3.3 % * u e.h.] ! (.@X).7.I p.v.Z.Z.Z.i.Z.Z.C.Z.C.Z.D.Z.C.C.C.D.Z.Z.F.F.i.Z.Z.Z.H.{.",
",XI.i.G.J.H.i.i.J.i.H.i.i.F.i.H.C.C.C.Z.Z.Z.C.A.v.g m V.#X X .8 ..1.2.S.k.^ F  X@X).7.K d.C.C.A.Z.i.Z.Z.Z.Z.v.Z.D.Z.Z.C.Z.D.F.D.F.Z.i.Z.F.Z.F.&X",
"<XP.F.i.i.i.i.H.i.H.i.H.i.H.i.i.v.C.v.v.v.v.v.v.h.g m V.#X(.+.w M.S.v.Z.h.~ !  X%X).7.K p.i.i.i.Z.C.i.i.i.v.i.Z.Z.C.C.Z.Z.A.A.D.Z.Z.Z.i.Z.Z.F.&X",
"<XU.G.i.i.H.i.i.H.i.H.i.i.H.H.F.Z.v.v.C.C.C.v.c.i.g n V.#X(.3.w M.v.v.v.j.^ H  X@X).7.K f.A.D.A.D.A.Z.A.Z.Z.v.v.C.C.Z.Z.Z.A.Z.Z.Z.Z.Z.Z.Z.Z.F.{.",
"<XP.G.H.J.i.H.i.i.H.i.H.i.i.H.i.Z.C.C.Z.C.C.v.C.h.g b R.#X(. .s M.C.v.Z.j.~ G .X%X).7.J f.F.A.F.D.A.C.Z.A.A.i.v.Z.Z.Z.Z.C.Z.A.A.Z.i.Z.Z.Z.Z.F.&X",
"<XP.F.i.F.i.i.J.F.Z.Z.Z.i.i.F.i.v.v.Z.A.A.v.Z.v.j.N b V.#X(. .w M.S.Z.S.z.Q F (.@X).8.K 0.Z.Z.A.A.A.C.Z.C.C.v.i.Z.Z.A.Z.i.Z.Z.Z.Z.i.Z.Z.Z.Z.H.{.",
"<XI.G.H.i.F.i.i.Z.Z.Z.F.F.F.F.H.C.v.Z.Z.Z.A.Z.A.y.g x T.#X~.3.s g.j.j.v.d.Q m R.@X.X8.K 6.z.i.C.Z.A.A.A.C.Z.Z.i.C.Z.A.Z.Z.Z.Z.Z.F.Z.i.F.Z.Z.F.&X",
"<XP.i.i.G.i.i.F.i.F.Z.i.i.F.i.i.C.v.Z.v.v.v.v.s.Q 6 v V.#XOXw.8 A ` ~ Q Q 0 e n.XX.X8.S g W { t.Z.Z.i.i.i.C.i.i.i.A.C.C.C.C.C.C.i.i.i.Z.i.F.F.{.",
",XP.A.i.i.J.J.i.Z.i.F.i.i.i.F.i.v.v.Z.v.Z.A.z.a $ = b T.#X#XN.e % - , , * = e n.+X).8.K 6 * < X.C.Z.v.i.i.C.Z.v.C.C.Z.Z.C.Z.C.C.Z.Z.i.i.F.i.F.&X",
";XP.F.F.F.D.Z.Z.Z.F.Z.i.F.i.F.Z.A.C.C.Z.Z.v.,.* X w v B.$X@XW.| V Q Q D n x c w.XX).5.| m q * ' i.F.H.i.i.D.D.D.Z.Z.Z.Z.Z.Z.A.A.i.Z.i.Z.Z.Z.F.{.",
";XP.D.Z.Z.D.Z.Z.Z.Z.Z.Z.Z.Z.Z.Z.Z.k.C.Z.v.1.0 X 0 f k q..X(.n. ./ -.-.#...S z 5.N.w.I M K q * ] i.F.D.F.F.F.i.F.Z.Z.Z.Z.v.C.Z.Z.F.Z.F.F.Z.Z.H.{.",
";XP.D.Z.Z.Z.Z.Z.F.Z.Z.Z.D.F.Z.i.C.k.C.C.y.d % 0 K K r  .b.0.3.o.#.:.4.:.;.| k z c v w x ..q * ] i.P.D.i.i.F.i.i.C.Z.A.Z.C.C.Z.Z.F.i.i.F.Z.F.J.&X",
";XP.D.i.Z.Z.Z.Z.i.F.Z.Z.i.i.Z.F.C.h.v.d.j , 7 ( #.O.} :.8.| | $.;.#.:.-.#.@.L k v S F | ..q * [ i.H.A.D.i.D.D.i.v.Z.Z.Z.i.C.C.C.Z.i.Z.F.Z.i.H.&X",
",XP.i.i.u.Z.Z.Z.Z.i.Z.i.i.i.Z.Z.v.l.l.1.< X 8 A / F F / K G F D Q ! ! ! ! ! F M D D F F d : y t.i.F.i.i.D.i.D.i.D.i.D.i.A.C.C.i.i.F.i.i.H.i.i.&X",
",XP.J.i.Z.Z.Z.i.Z.Z.Z.Z.Z.Z.Z.Z.C.Z.D.e.> . % * # & 2 3 & @ = = & % % = = @ & & & & & & o O a u.F.i.i.F.i.F.i.H.H.D.A.D.C.C.A.D.F.i.F.F.i.F.J.&X",
",XP.H.i.Z.D.F.i.Z.Z.Z.F.Z.Z.Z.Z.C.C.D.r.< % & - & 4 2 2 = = & & - - = = % = 4 3 = # , & : O T u.F.F.F.F.D.i.F.i.D.D.i.D.C.i.A.C.F.i.i.Z.H.i.F.{.",
",X_.H.H.Z.F.Z.Z.Z.Z.Z.Z.Z.Z.Z.Z.Z.C.D.s.E B j j j N N n j N j B B B j N j B N B B B B j h h e.i.i.i.F.i.G.i.D.D.H.i.A.D.i.C.C.C.H.i.i.H.i.H.F.{.",
"<XU.H.F.i.F.i.J.i.P.H.P.i.H.H.i.H.J.H.i.i.i.i.i.i.i.i.i.i.i.i.i.i.i.i.i.i.i.i.i.Z.i.i.i.i.i.F.F.F.i.F.F.i.F.F.i.F.Z.Z.F.i.F.F.Z.Z.i.i.H.i.Z.H.&X",
"<X_.H.G.J.G.H.i.H.i.i.i.i.i.J.i.i.i.i.H.F.i.i.i.i.i.i.F.i.J.F.F.F.i.Z.i.i.F.Z.Z.F.Z.i.F.i.i.i.i.F.F.i.F.G.Z.i.F.F.Z.i.F.i.i.i.i.F.i.i.i.i.H.F.&X",
"<X_.H.J.J.i.i.G.i.H.i.F.J.i.J.i.i.i.i.H.i.F.H.i.H.H.i.i.i.H.F.F.F.Z.Z.F.J.F.i.F.Z.Z.F.i.i.F.i.F.i.F.F.F.F.F.F.i.Z.Z.i.Z.F.F.i.F.F.F.F.Z.Z.F.F.&X",
"<X`.H.i.i.H.i.i.H.i.H.J.i.H.i.J.H.i.H.i.F.i.F.i.F.i.H.i.F.J.i.F.F.F.F.F.H.F.H.i.Z.A.Z.F.i.F.F.F.F.i.i.G.F.F.i.F.Z.Z.F.F.i.F.H.Z.Z.i.F.F.Z.i.H.{.",
",X_._.i.J.i.i.i.i.G.i.i.i.G.i.F.i.i.i.H.i.J.i.F.i.F.F.F.i.F.i.H.F.F.i.Z.F.F.H.i.Z.Z.Z.i.i.F.F.i.F.i.i.F.i.F.i.Z.i.F.Z.Z.F.i.i.F.F.i.F.J.Z.Z.H.{.",
",X_.P.H.i.H.i.H.F.i.H.i.i.i.H.i.H.i.H.i.F.H.J.i.F.F.i.i.i.H.F.i.F.i.F.Z.i.i.F.F.Z.Z.F.i.i.F.F.i.F.F.F.i.F.i.i.Z.F.Z.F.F.F.Z.F.i.F.F.i.i.Z.Z.H.{.",
"<X`.P.i.J.i.i.J.J.H.G.G.H.F.G.G.H.i.H.H.J.H.i.i.F.F.F.i.i.Z.F.F.F.F.H.i.H.F.Z.i.Z.F.F.Z.i.F.F.A.F.F.i.H.F.F.H.F.H.J.J.J.F.i.F.F.F.i.H.H.J.i.H.&X",
"<X&X{.{.{.[.{.{.'.{.'.}.'.'.'.'.{.{.{.{.{.{.&X{.].].{.{.{.].].{.{.{.{.{.{.{.{.].].].].{.&X{.{.{.{.].`._.`.'.'.{.{.].{.{.].].'.`.{.&X{.{.{.{.{.=X"
};
