/* XPM */
static char *ee2c1de542414d4fc7e070af038ea00fDGwwVvtc63DUKgVX[] = {
/* columns rows colors chars-per-pixel */
"72 72 159 2 ",
"   c None",
".  c #737A87",
"X  c #757C8A",
"o  c #77808C",
"O  c #7A828E",
"+  c #7D8692",
"@  c #7F8894",
"#  c #808794",
"$  c #818A96",
"%  c #848E99",
"&  c #87919B",
"*  c #89949D",
"=  c #88949E",
"-  c #89949E",
";  c #89949F",
":  c #8A949E",
">  c #8B949E",
",  c #8A959E",
"<  c #8A949F",
"1  c #8B949F",
"2  c #8A959F",
"3  c #8B959F",
"4  c #8B969F",
"5  c #8C949F",
"6  c #8C959F",
"7  c #89939E",
"8  c #8B94A0",
"9  c #8A95A0",
"0  c #8B95A0",
"q  c #8B96A0",
"w  c #8B97A0",
"e  c #8C95A0",
"r  c #8D95A1",
"t  c #8C96A0",
"y  c #8D96A0",
"u  c #8C97A0",
"i  c #8D97A0",
"p  c #8C96A1",
"a  c #8D96A1",
"s  c #8C97A1",
"d  c #8D97A1",
"f  c #8E96A1",
"g  c #8E97A1",
"h  c #8C97A2",
"j  c #8D97A2",
"k  c #8E97A2",
"l  c #8F97A3",
"z  c #8C96A0",
"x  c #8C98A1",
"c  c #8D98A1",
"v  c #8D99A1",
"b  c #8E98A1",
"n  c #8D98A2",
"m  c #8D99A2",
"M  c #8D99A3",
"N  c #8E98A2",
"B  c #8F98A2",
"V  c #8E99A2",
"C  c #8F99A2",
"Z  c #8E98A3",
"A  c #8F98A3",
"S  c #8E99A3",
"D  c #8F99A3",
"F  c #8E9AA2",
"G  c #8F9AA2",
"H  c #8E9AA3",
"J  c #8F9AA3",
"K  c #8F9BA3",
"L  c #8F99A4",
"P  c #8F9AA4",
"I  c #8F9BA4",
"U  c #8E99A2",
"Y  c #9099A3",
"T  c #909AA3",
"R  c #909BA3",
"E  c #9098A4",
"W  c #9099A4",
"Q  c #909AA4",
"!  c #919AA4",
"~  c #909BA4",
"^  c #919BA4",
"/  c #909AA5",
"(  c #919AA5",
")  c #909BA5",
"_  c #919BA5",
"`  c #929BA5",
"'  c #919BA6",
"]  c #929BA6",
"[  c #909CA4",
"{  c #909CA5",
"}  c #919CA5",
"|  c #919DA5",
" . c #929CA5",
".. c #929DA5",
"X. c #919CA6",
"o. c #919DA6",
"O. c #929CA6",
"+. c #929DA6",
"@. c #939DA6",
"#. c #929CA7",
"$. c #939CA7",
"%. c #929DA7",
"&. c #939DA7",
"*. c #939EA6",
"=. c #929EA7",
"-. c #939EA7",
";. c #949DA7",
":. c #949EA7",
">. c #919CA5",
",. c #939DA8",
"<. c #939EA8",
"1. c #939FA8",
"2. c #949DA8",
"3. c #949EA8",
"4. c #959EA8",
"5. c #949FA8",
"6. c #959FA8",
"7. c #959FA9",
"8. c #969FA8",
"9. c #959FAA",
"0. c #949FA8",
"q. c #94A0A8",
"w. c #95A0A8",
"e. c #94A0A9",
"r. c #95A0A9",
"t. c #96A0A9",
"y. c #96A1A9",
"u. c #95A0AA",
"i. c #96A0AA",
"p. c #97A0AA",
"a. c #96A1AA",
"s. c #97A1AA",
"d. c #96A1AB",
"f. c #97A1AB",
"g. c #97A2AB",
"h. c #96A1AA",
"j. c #98A2AB",
"k. c #98A2AC",
"l. c #99A2AC",
"z. c #98A3AC",
"x. c #99A3AC",
"c. c #99A3AD",
"v. c #9AA3AD",
"b. c #99A4AD",
"n. c #9AA4AD",
"m. c #9AA4AE",
"M. c #9AA5AE",
"N. c #9BA5AE",
"B. c #9BA5AF",
"V. c #9CA6AF",
"C. c #99A3AC",
"Z. c #9CA6B0",
"A. c #9CA7B0",
"S. c #9DA7B0",
"D. c #9DA7B1",
"F. c #9CA7B0",
"G. c #9DA8B1",
"H. c #9EA8B1",
"J. c #9EA9B2",
/* pixels */
"                                                                                                                                                ",
"  & ~ 4 w V 4 V V +.e.P ~ +.+.~ w % w w d V d & V d d ~ ~ x.e.+.+.7 5.e.e.e.+.7 w d d ~ ~ +.+.+.d 7 V :.5.+.d & 5.d V +.d 5.x.e.x.d d e.e.e.B.  ",
"  7 1.V V +.d V ~ V ~ w V ~ +.+.V 7 P V V +.V 7 d V V 5.1.B.+.d V $ 4 ~ V ~ +.V V V V 5.d ~ +.+.V % 4 V P V 7 $ V V V +.~ e.5.e.B.V $ ~ V V e.  ",
"  7 5.V d +.% 4 V V V d 4 V V V d 7 V V d ~ & 4 V V V +.d j.+.V V @ & V V V 7 d V V d +.% V V V V & & V V V & $ V V V +.4 ~ V ~ ~ 4 $ V V V V   ",
"  d e.V V +.% 4 V +.~ V 7 V V ~ V 4 V V V +.% V e.5.+.e.+.e.V V V $ 7 V V V d V V V V +.$ V V V ~ & V V V V 4 7 T V V +.4 V V w w 4 $ V V V ~   ",
"  $ V & 4 +.O $ 4 V d 4 % ~ d 7 % @ w & 7 +.@ 6 e.5.5.+.V 5.~ V V + % V V V 7 % 4 & d ~ O V d 7 & @ $ & 7 d 7 % 7 % % & $ 7 & & 4 % @ d d V V   ",
"  + & % $ 4 $ @ 7 & % 7 $ 7 7 & & $ d 7 7 ~ $ % ~ 4 d % + 7 & & & $ 7 w d V & % d 7 d d @ $ $ @ $ @ O $ $ & $ % 7 % % 7 @ 7 7 7 7 @ $ d d d 7   ",
"  % P V V +.~ 4 V V ~ +.& V V +.V V B.e.V V d d ~ ~ ~ 7 $ V d ~ V V e.j.x.B.5.5.B.+.V V 4 V V V +.w 7 V V ~ w +.B.+.V +.4 V +.~ ~ % d +.+.~ d   ",
"  & P V V +.V 4 d V V +.4 +.~ V V 4 j.+.V V & & V V V & $ +.~ V V 7 +.V +.+.+.~ e.V d d 7 V V d +.7 d +.V V d V j.~ V V $ 4 V V V $ % V V V 4   ",
"  w e.+.V +.T ~ ~ ~ V +.d +.V d +.4 x.~ V d % 4 V d V & $ +.~ d +.7 V V V d V +.e.V V 4 7 ~ V d +.% d +.V V ~ V e.V V w % V V d V $ & V V V d   ",
"  w G.x.j.x.~ e.x.x.x.e.d ~ V V +.~ e.+.V V 7 V V V V 4 % +.~ V +.d V w w V ~ +.e.V P V w V d V 5.$ d +.~ V 5.~ e.+.~ V 7 V V V +.& d V V V V   ",
"  % 1.V P ~ % 4 4 % % $ $ V 7 & $ $ d 4 $ & $ . @ $ & $ % d & & % % 7 $ $ 7 & & +.4 & % + % $ % d @ 7 4 7 $ $ % ~ 4 % 4 O O @ $ % O X + @ % 7   ",
"  V Z.5.V +.% V +.~ ~ V 7 +.+.+.w @ 7 4 4 V 7 & +.+.+.7 4 e.e.e.e.~ e.j.e.e.~ d +.+.~ 4 $ V V +.5.7 d +.+.+.& $ w 4 4 ~ w +.+.+.+.% :.x.+.T +.  ",
"  V G.+.w V $ 7 V V V V & V V V 4 $ 4 d V +.V 7 V V V & d +.+.e.x.+.5.+.e.x.5.7 V V V 7 $ +.V V V & 4 V V V & & w V V 5.4 d V V V $ 5.j.V w V   ",
"  d Z.~ V V @ 7 V V V & % V V V 4 @ V V V +.d & V V V % % V V V ~ d V V V V ~ 7 V V V 4 @ V V V ~ & 7 V V V % & V V V +.7 w V V V @ +.e.V V w   ",
"  d Z.V V V $ 4 V ~ V d V V V V V $ x.j.5.e.e.~ V V ~ 4 % ~ d 4 V d V V w 4 +.+.V V V d @ V +.+.+.V V V V V & d x.e.+.e.5.V V V +.$ +.5.V V d   ",
"  7 e.~ 4 w @ % w d V & O $ $ & & @ +.+.+.:.7 O $ % 4 % $ & % & d 4 7 & & 4 4 @ $ $ 7 7 o $ 4 4 4 % @ $ % 4 $ & 1.~ +.+.$ @ $ % d $ d +.d 4 4   ",
"  $ 5.~ V 4 O $ 7 4 w % $ d 7 7 7 @ 7 d 7 d $ @ % $ 7 % 4 ~ V d V % % % & 7 % % 6 7 w d 7 d ~ ~ ~ % $ 7 7 4 @ $ w 4 d ~ $ % & 7 7 $ 7 4 w V ~   ",
"  % 1.+.+.~ $ w V ~ +.7 & e.+.+.x.4 d V +.~ 7 4 V ~ +.V ~ V.+.V +.7 4 V V V 4 5.V.+.V +.e.x.x.B.Z.d 4 +.+.V 7 & ~ V +.P d :.+.+.V 4 w V V +.+.  ",
"  @ +.V V V @ V +.V V 7 @ V d V d 7 ~ +.V V 7 d +.V V d d j.~ V d 4 V +.V V 4 ~ e.V V w ~ ~ V +.5.w & V V V % $ +.V V V & V ~ +.d 7 4 ~ V V P   ",
"  % +.V d V @ V +.V V V $ V V V 4 7 ~ +.d ~ d d +.V V ~ d e.V V w & V +.d ~ V +.e.V V 4 7 V V d V d 4 V V V & $ V ~ ~ ~ 7 V d V ~ 7 & V +.~ +.  ",
"  & +.V V V @ V V V V ~ $ V ~ ~ V 7 ~ V V P V d ~ V V +.V e.~ V V & ~ V V V +.~ e.V V V d d 4 4 V d d d V ~ 7 @ V V V +.& V ~ d d $ $ V ~ ~ +.  ",
"  . $ @ % d @ & 7 7 & @ . $ $ $ $ $ d 7 4 7 % 7 w 4 & $ 7 +.w 7 4 & d 7 & % % 4 +.d 4 4 7 7 $ % w $ . O O $ $ O $ 7 4 7 % 7 7 & % @ o $ 7 7 %   ",
"  ~ B.j.j.x.& 7 d V V 7 & 4 4 4 ~ 7 V V +.5.4 +.+.~ V 7 P j.x.j.j.~ e.j.e.x.~ +.x.+.V ~ V e.x.j.B.d 4 d d V ~ 7 V V +.+.4 +.+.~ V & % d d V V   ",
"  +.5.+.e.j.d V V V V 7 d V V V +.& +.V V V 7 V P +.V 7 ~ +.+.e.e.+.+.~ 5.e.+.+.e.V w d V +.+.e.x.d d V V V ~ & +.V V V 7 V ~ +.V & 4 ~ V V V   ",
"  w +.V V V d V +.V V V V V V d ~ @ V V V ~ 7 d V V V 7 4 V V V V d V V V V V :.e.V V 7 & ~ V V V V V V V V V $ V V V P 7 V V V V 4 d +.V V :.  ",
"  4 +.V w V 4 ~ ~ V +.1.P ~ V V +.$ V +.+.+.d d ~ V +.4 4 V d w V V V V w d ~ e.5.V V d & P V w V d V P V +.~ $ P +.+.+.7 V P V +.& d +.~ V x.  ",
"  % 7 $ & 4 7 d 4 4 & % $ % $ 7 7 . % 7 4 7 % 4 d & % $ $ & $ & 4 7 7 % % 7 4 d +.V 4 4 & & $ % 4 % $ $ $ 4 % X % 4 4 7 $ d 7 & % @ 7 w 7 & 7   ",
"  d 5.~ ~ +.% & w 4 7 $ $ % $ % 7 % 4 d ~ ~ 7 V d d 4 7 d +.~ ~ ~ d +.~ ~ ~ d ~ e.+.T ~ d 1.~ T +.7 $ % % % 4 % 4 d +.~ 4 T V V 4 & % 4 4 w 7   ",
"  5.B.x.B.V.7 d V ~ +.4 d V V ~ 5.w ~ V +.+.w +.+.+.P 4 +.e.x.B.B.5.e.e.x.V.5.e.x.V V V ~ e.j.x.Z.V V V V +.5.w +.V +.P w +.+.+.V 7 7 V V +.P   ",
"  V +.~ +.+.d V +.V V d d V V V ~ $ ~ V V V 7 V V +.V 7 d V ~ +.+.V ~ V +.+.~ +.e.V V 4 4 ~ V +.+.d V V V V V % +.V V V 7 V P ~ d 7 d +.~ V ~   ",
"  4 +.V w V d V +.d V ~ V V V V ~ @ V ~ +.~ 4 d V V ~ 4 7 V V w V 4 V V d d V 5.+.V V 7 % P V w V ~ V V V V d $ V ~ ~ ~ 7 V d V ~ 7 d +.V V 5.  ",
"  7 V 4 4 V 4 V V V V T d d 4 V ~ O 4 V V ~ 7 d +.V d $ & w 4 4 V d w 4 4 V V +.e.~ V d 7 w 4 4 V d d w 4 +.4 @ d V V ~ & V ~ w 4 $ 4 V V d +.  ",
"  % 7 % 7 % & ~ d w w % % 4 % V 4 O 4 ~ P V 7 % 7 % $ % % w & 7 4 % 7 % $ $ # @ & @ + $ & ~ d d ~ % O @ O @ $ X $ & $ % $ d & $ @ @ 7 d % $ $   ",
"  T e.+.~ 4 4 e.x.x.B.5.5.x.x.x.j.+.B.5.V +.d & d w V +.+.B.5.V +.$ ~ :.+.5.~ 7 4 w d ~ ~ B.5.V ~ & 4 d V V +.& 4 d w +.% +.+.+.e.V 7 5.+.5.x.  ",
"  7 +.+.~ 4 7 +.V :.e.5.+.P +.5.e.V j.+.d V 7 4 w V V +.~ x.P d V @ 4 V d V d d V V V +.d x.+.V V & d V V V V & w V V 5.@ 4 V d V & $ V d V V   ",
"  & +.V V V % ~ V V V V d V V d V V j.~ V V % V V V V +.V e.~ V d @ 4 V V V & V V V V V % x.~ V d % V V V V 6 % ~ ~ V +.$ 4 V V V $ $ V V V w   ",
"  % 1.V ~ V % V d 4 d P d V w 4 V +.x.+.P ~ & 5.x.e.e.j.+.e.V V V @ 4 V ~ V V V V V V ~ 7 j.~ V V 7 V V V ~ d 7 B.j.e.x.& 4 V ~ V 4 % V ~ ~ ~   ",
"  @ d $ @ @ @ & $ % 7 7 & % % 7 7 % d w $ & $ w P d V V 7 +.V 4 d O $ 7 & 7 $ @ $ @ % % @ ~ V 4 7 @ $ % $ d $ @ +.d d V O & 4 w V $ O 4 & % &   ",
"  @ 4 % % 7 7 4 4 V +.d d ~ V d & $ % & % 7 & % 4 & 7 d d e.+.V +.% V ~ d d 7 @ & % % 4 V ~ T V 4 % 4 ~ ~ ~ & $ +.& 7 V 7 +.5.+.e.w 7 +.P d ~   ",
"  4 +.V V +.d V V V V 4 V P +.~ w 7 V V V +.d 7 w V V 5.+.B.~ 4 V @ w V V ~ ~ V V V V 5.d ~ +.+.V & 4 V V V & % V V V ~ +.e.+.e.B.d $ ~ V V 5.  ",
"  4 +.V d +.$ d V V V d 4 V P V d 4 V V d ~ % 4 d V V +.d j.~ V V @ 4 V V V & d V V d +.% V V V V & 7 V V V & % V V V +.4 ~ V ~ ~ 4 $ V V V d   ",
"  d 1.V V +.$ 4 V +.~ V 7 V V ~ V d ~ V V +.$ ~ 5.5.+.e.+.e.V V V @ 4 V V V 4 V V V V ~ $ V V V ~ 7 V V V V 7 7 V V V ~ 7 V V w d 4 % V V V V   ",
"  % V & 4 +.O $ 4 d d 4 & ~ 4 & % $ d 7 4 +.@ V e.5.e.5.P e.~ V V + 7 V ~ P 7 7 4 7 V ~ + T d & & @ $ & 7 d 7 & 4 % & 7 $ 4 7 7 d 7 $ V V V V   ",
"  X $ @ @ % $ 7 V P d 7 7 7 7 7 V O $ % % 4 @ % 7 % % d 7 V 4 & V $ % w d V & 4 +.V +.~ $ d w 7 7 O @ % % 4 $ $ d % 7 7 $ & & % 7 7 $ 7 d ~ V   ",
"  7 +.V V +.+.B.e.V P d 4 P V +.+.$ d V ~ V 7 & d d V :.w 4 V V +.7 4 d V V 4 5.x.V d V 4 V +.+.P $ V +.+.~ 7 ~ B.+.V ~ 7 4 V V ~ ~ w V V +.+.  ",
"  7 +.V d +.7 e.:.V V 4 7 +.V V V 7 V ~ V V 7 4 d V V 5.V 4 V V +.d V +.V V 7 +.e.V d d $ V V V V @ & V V V % w j.P V d 7 w d V ~ T 4 +.V V P   ",
"  4 1.V d +.% j.+.V V & % V ~ ~ V 7 ~ +.d P d V +.~ V 5.:.+.+.V :.V V +.V P d +.5.V V 4 % V V d V @ 4 V V V $ 4 e.V V 4 % +.+.~ +.~ & V ~ ~ +.  ",
"  4 +.V V +.% e.+.V ~ & $ V +.+.+.d ~ ~ V +.V :.x.j.e.x.e.x.j.j.x.d ~ ~ V V ~ +.e.V P d 7 V V V ~ $ V V V V 7 d e.~ V V & x.x.j.x.~ % V ~ ~ +.  ",
"  O w $ % 4 o 4 d & & $ O & % $ $ $ 7 7 & % $ & 4 7 d 7 7 P d d P % & 7 & % $ 4 +.d w 4 X O O $ 4 O X @ $ 7 @ $ V 7 & 7 % w d d d % + % 7 4 7   ",
"  % e.+.+.V @ & 4 d V 7 7 5.+.~ +.$ 4 w V V % % 4 w V 4 V x.5.T +.% 7 4 V V 4 +.x.+.V +.+.e.e.e.x.d d +.+.+.& % V V +.+.4 +.~ V d & 4 V V +.+.  ",
"  $ +.V V V @ d V V P & $ V V V ~ 4 V V V V & 4 V V ~ 4 d B.~ w V 7 V V V V 4 +.x.V w V 5.+.+.e.B.w & V V V % % +.V V V 7 V ~ +.V 7 4 ~ V V V   ",
"  @ +.V V V @ V +.V V d @ V V V 4 & +.+.V V d d +.V V V d j.~ V w 7 V +.V V V ~ e.V V 4 w V V V ~ w 7 V V V % $ V V V P 7 V V V V 7 7 V V V ~   ",
"  d +.V V V $ V T V P ~ $ V V V V 7 ~ ~ V +.V d ~ V V +.V e.V V V & P ~ V +.~ ~ e.V V d 4 V w 4 V d V V V ~ 7 $ V +.+.+.7 V V V ~ & & V +.+.+.  ",
"  O & % 7 V @ 4 d d 4 & O 4 4 4 4 $ V 4 4 4 7 4 V d 7 4 4 5.V d d & V 4 4 & 7 d 5.V d w 4 7 % & d % + $ $ 7 $ O & 4 w 4 $ d d 7 & @ O & w w w   ",
"  % V d V +.$ % 7 4 4 $ + $ $ $ & $ w 4 V ~ 7 d V V 4 % w 5.~ ~ +.w ~ ~ T ~ 4 P e.~ V ~ 4 ~ V V +.7 @ $ $ % & $ 7 d ~ ~ 4 V d d 7 % @ 7 4 4 4   ",
"  :.B.j.x.B.7 4 V V ~ 7 d V V V 5.w V V ~ ~ 4 +.~ +.V 4 +.e.e.x.B.5.e.e.j.B.5.5.x.V d V ~ e.e.x.V.T V V V ~ 5.4 ~ V ~ V 4 +.~ +.V 7 7 V V ~ V   ",
"  V +.V +.+.d V +.V V d d V V V ~ $ ~ V V V 7 V V +.V 7 d V P ~ +.V ~ V +.+.~ +.e.V V 4 4 ~ V +.+.T V V V V V $ ~ V V V & V V ~ d 4 d +.~ V +.  ",
"  4 +.V w V d V +.V V ~ V V V V +.$ V T +.~ 4 4 V V ~ 4 7 V V w V 4 V V d w V 5.:.V V 4 % ~ V w V V V V V V V $ V ~ +.~ 7 d d V ~ 4 d +.V V e.  ",
"  7 V 4 4 V 7 V V V V T w d 4 V ~ O 4 V V ~ 7 w ~ d w % & d 4 4 V d 4 4 4 d V +.5.V V w & d 4 4 V d d w 4 ~ d O 4 V V ~ & V V w 4 $ 7 V V w +.  ",
"  $ & $ $ 7 7 & & % $ % + % $ & % O & d d 4 % % 4 & % @ O $ $ % % % 4 % & 4 7 4 ~ d 4 d @ @ + O $ @ @ % $ 7 $ @ 7 d d 4 $ 7 7 & & @ % d 4 % $   ",
"  $ P V w +.V & d w V V % V V ~ V V B.e.V ~ d d +.+.+.4 @ V d ~ V w e.x.x.B.5.5.B.+.V ~ & d V V +.7 & V V V d +.B.+.V +.7 V +.+.+.% 4 +.+.+.V   ",
"  & P V V +.d 4 w V V +.4 ~ V V d 4 x.+.d V 7 & V V V & % ~ V V V 7 +.V +.e.:.+.e.V d d 7 V V d +.7 4 ~ V V w V j.~ d V % 4 V V V $ % V V V w   ",
"  4 5.~ V +.V V V V V +.d +.~ d ~ 4 x.~ V d % 7 V V V & $ +.+.d +.7 V V V V V +.e.V V 4 7 ~ V d +.% d +.V V ~ V j.V V w $ w V d V $ % V V V d   ",
"  d G.x.e.x.+.e.x.j.e.e.d ~ P V 5.P e.~ V V 7 P V V V 4 $ +.~ V +.w d d 4 w ~ 1.5.V V V w V V V +.$ d +.~ P 5.~ e.~ P V 7 +.V V +.& V V V V P   ",
"  % 5.V ~ +.& d d 7 7 & % V 4 & % % V V & 4 $ X @ $ 7 $ $ V 7 & & % 7 % % 7 7 7 +.4 & & @ & $ % ~ @ 7 7 7 $ $ & ~ d & 7 O X O # % + X @ # & 7   ",
"  d x.:.V +.% d ~ d d 7 % +.+.~ 7 @ & 4 & d & $ ~ V ~ 7 7 5.5.:.+.d +.5.:.5.V 4 ~ T V 4 $ d d ~ 5.& d +.+.~ % $ 4 4 7 V 7 d ~ P V $ V 5.V V ~   ",
"  ~ G.+.w V $ 4 V V V +.7 V V V 4 $ 4 d V +.V 7 V V V 7 V 5.5.e.B.5.5.+.e.x.5.4 V V V 4 $ +.V V V & 4 V V V 7 & w V V 5.d V ~ V V $ :.x.V d ~   ",
"  d Z.~ V V @ & V V V 7 % V V V 4 @ V V V +.d & V V V & & ~ V V +.V V V ~ V ~ 7 V V V 4 @ V V V P & & V V V & & V V V +.& 4 V V V @ +.e.V V d   ",
"  V Z.V V V $ 7 V V V w d V V V d $ e.e.+.5.5.V V V V 7 $ P V 4 V d V V d 4 +.~ V V V d @ V +.+.+.d V V V V & 4 e.5.+.e.+.V V V ~ $ +.5.V V d   ",
"  6 Z.+.~ ~ @ & ~ ~ +.4 $ 7 4 V V $ e.e.e.x.d $ 7 4 V 7 % V 4 d ~ w 4 4 4 d V % 7 4 V d O 7 V V V 7 & d V ~ 4 4 B.j.x.x.7 7 4 d +.% V j.+.~ V   ",
"                                                                                                                                                "
};
