/* XPM */
static char *result[] = {
/* columns rows colors chars-per-pixel */
"72 72 206 2 ",
"   c #651D0C",
".  c #582517",
"X  c #6F2A0F",
"o  c #7A2A0E",
"O  c #7C6555",
"+  c #796D64",
"@  c #883B12",
"#  c #95440D",
"$  c #8D4412",
"%  c #85461C",
"&  c #9A531F",
"*  c #A1480F",
"=  c #A34E13",
"-  c #A85419",
";  c #B25618",
":  c #8A5023",
">  c #995628",
",  c #855838",
"<  c #945B32",
"1  c #A35927",
"2  c #AC5E2A",
"3  c #B25E23",
"4  c #A35E31",
"5  c #9C663F",
"6  c #AA622B",
"7  c #AD642D",
"8  c #BB6522",
"9  c #B36229",
"0  c #B9642C",
"q  c #BE6B2E",
"w  c #A56333",
"e  c #AD6532",
"r  c #A96937",
"t  c #A3653A",
"y  c #A5683C",
"u  c #AB6B3B",
"i  c #B26531",
"p  c #B56A34",
"a  c #BC6C34",
"s  c #BD6D39",
"d  c #A2703D",
"f  c #BA733B",
"g  c #C4631F",
"h  c #C9741E",
"j  c #C46623",
"k  c #C76A27",
"l  c #C26C2D",
"z  c #CA6E2C",
"x  c #D26E28",
"c  c #CA7627",
"v  c #DA7B2C",
"b  c #C16D33",
"n  c #C57335",
"m  c #CC7335",
"M  c #CB7E37",
"N  c #C5743A",
"B  c #CE7539",
"V  c #CC7A3D",
"C  c #D37533",
"Z  c #D67935",
"A  c #DC7D35",
"S  c #D3773A",
"D  c #D37C3C",
"F  c #DC7E3A",
"G  c #E37C2D",
"H  c #E97E29",
"J  c #E17E34",
"K  c #E17E3A",
"L  c #825E41",
"P  c #8C6042",
"I  c #986947",
"U  c #976D51",
"Y  c #9B7457",
"T  c #95725B",
"R  c #A36C43",
"E  c #B36C40",
"W  c #AB7249",
"Q  c #BC7442",
"!  c #BE7949",
"~  c #A67A5A",
"^  c #B47D54",
"/  c #8A776A",
"(  c #967B67",
")  c #A37F66",
"_  c #C57A45",
"`  c #CC7E46",
"'  c #D37E44",
"]  c #DA7F41",
"[  c #DA812A",
"{  c #DE8134",
"}  c #D5813E",
"|  c #DC813B",
" . c #DA8738",
".. c #E3832D",
"X. c #E88A2E",
"o. c #EE912C",
"O. c #F79629",
"+. c #F5952C",
"@. c #F7992B",
"#. c #E28135",
"$. c #ED8D34",
"%. c #E1813B",
"&. c #F08D35",
"*. c #ED9233",
"=. c #F39332",
"-. c #F89531",
";. c #B88558",
":. c #BD845B",
">. c #9E816C",
",. c #968378",
"<. c #B78766",
"1. c #BB8C6A",
"2. c #A58976",
"3. c #AC8C73",
"4. c #A98D7C",
"5. c #B28E73",
"6. c #B8957B",
"7. c #CE8446",
"8. c #C1824F",
"9. c #CC834A",
"0. c #D48144",
"q. c #DB8241",
"w. c #D4834B",
"e. c #CC8354",
"r. c #C78859",
"t. c #D28652",
"y. c #C48B65",
"u. c #C7926C",
"i. c #C99A78",
"p. c #7E8793",
"a. c #7F8894",
"s. c #8A8A8D",
"d. c #968B84",
"f. c #928D8C",
"g. c #96918E",
"h. c #9B918C",
"j. c #828B96",
"k. c #8E8F91",
"l. c #858E99",
"z. c #888F9A",
"x. c #8C9196",
"c. c #87919B",
"v. c #8A949E",
"b. c #949394",
"n. c #9B9694",
"m. c #9E9996",
"M. c #92969B",
"N. c #94999D",
"B. c #9C9B9B",
"V. c #A28F84",
"C. c #A6958A",
"Z. c #B39884",
"A. c #BB9B83",
"S. c #B39B8B",
"D. c #A59A93",
"F. c #A29C9A",
"G. c #B29D92",
"H. c #ABA095",
"J. c #ADA29B",
"K. c #B4A194",
"L. c #B6A499",
"P. c #8C96A0",
"I. c #8E99A2",
"U. c #9399A3",
"Y. c #929BA5",
"T. c #9C9EA3",
"R. c #959FA8",
"E. c #9BA2A7",
"W. c #96A0AA",
"Q. c #9AA4AC",
"!. c #9EA7B0",
"~. c #9FA8B1",
"^. c #A3A2A2",
"/. c #A9A6A5",
"(. c #B6ACA6",
"). c #A3ACB4",
"_. c #A6ADB7",
"`. c #A7B0B7",
"'. c #ACB3BB",
"]. c #B1B8BE",
"[. c #C5A289",
"{. c #C3A896",
"}. c #D0AC96",
"|. c #B4BBC1",
" X c #BBBEC5",
".X c #BAC0C5",
"XX c #BEC3C9",
"oX c #C4C7CC",
"OX c #C6C9CF",
"+X c #C7CBD0",
"@X c #CACED3",
"#X c #CDD1D6",
"$X c #CFD3D8",
"%X c #D3D7DB",
"&X c #D5D9DD",
"*X c #D8DBDF",
"=X c #D9DCE1",
"-X c #DEE1E4",
";X c #E1E3E6",
":X c #E4E6E9",
">X c #E5E8EA",
",X c #ECEDEF",
"<X c #EDEFF0",
"1X c #EFF0F1",
"2X c #F4F5F5",
"3X c #FBFBFB",
/* pixels */
"3X<X;X-X-X-X:X;X;X;X-X:X:X-X;X;X-X-X-X-X-X>X-X>X>X-X>X>X>X>X>X>X>X>X>X>X>X>X>X:X-X-X-X-X>X-X-X-X=X-X-X-X:X-X-X:X:X-X-X-X:X-X-X-X-X;X;X;X;X;X:X2X",
"2XXX~.Q.Q.Q.Q.!.Q.).).).~.~.).!.Q.Q.).).~.).~.!.~.~.~.~.~.`.`.~.~.~.~.`.`.`.~.!.Q.Q.~.~.~.~.!.!.Q.Q.!._.~.~.!.!.~.!.!.~.`.)._.`._.!.Q.).).).'.=X",
"2X|.W.I.I.Y.P.I.I.Y.I.v.I.Y.Y.I.P.v.I.I.I.I.I.a.I.I.Y.W.R.Q.R.I.Y.P.P.Y.I.Y.Y.I.I.I.I.R.Y.I.Y.R.P.c.P.I.I.I.P.c.I.I.I.I.W.W.W.W.W.I.v.I.I.Y.!.$X",
"2X].W.I.I.I.c.v.I.I.I.I.v.I.I.I.P.P.I.I.I.Y.P.P.I.I.I.Y.I.Q.I.I.I.a.a.I.I.P.P.P.I.I.I.I.P.P.I.I.P.c.P.I.I.P.c.l.P.I.I.W.I.I.I.I.Y.v.j.v.I.I.W.#X",
"2X.XW.I.I.I.l.v.I.Y.Y.I.v.v.I.I.I.v.I.I.I.I.c.I.R.R.Y.R.R.R.I.I.I.a.a.P.I.I.P.P.P.P.P.I.a.P.I.I.I.P.P.P.P.P.P.c.P.P.I.I.I.P.P.P.v.v.l.I.I.Y.Q.#X",
"2X].I.v.P.I.j.l.v.I.I.I.v.W.I.v.I.a.v.v.v.R.a.v.R.I.I.I.I.I.I.I.P.a.P.P.I.I.I.a.P.P.P.P.a.P.P.P.P.a.l.c.c.P.c.c.v.c.c.c.P.v.v.c.v.c.l.P.I.v.Q.$X",
"2X'.I.v.c.I.P.v.Y.I.I.Y.Y.Y.Y.I.I.I.I.v.v.I.v.v.I.I.I.P.P.P.P.a.P.P.P.P.I.I.I.P.I.I.P.I.I.P.a.P.c.P.j.a.a.c.v.P.v.c.c.v.v.v.v.c.v.v.v.Y.Y.Y.Q.&X",
"2X`.Y.P.P.Y.I.P.I.v.I.Y.v.I.I.I.I.Y.W.W.I.I.v.I.I.I.I.P.a.P.P.P.P.P.R.R.W.R.R.R.W.I.P.I.P.I.I.P.I.P.P.P.I.I.P.I.W.I.P.P.P.I.I.I.v.c.v.I.Y.Y.W.&X",
"1X'.R.I.I.I.I.P.v.Y.I.Y.v.I.I.I.I.v.W.Y.I.v.v.v.I.I.v.c.c.Y.I.I.P.P.I.I.Y.R.Y.Y.R.Y.P.P.P.P.P.I.I.v.P.R.I.I.I.I.W.I.I.I.c.v.I.I.P.l.l.I.I.I.W.%X",
"2X].W.I.Y.W.I.I.I.Y.I.Y.I.W.I.P.I.I.W.R.I.I.a.v.P.P.I.c.c.I.I.I.I.P.I.P.I.P.I.R.R.I.P.P.P.I.I.P.I.c.P.I.I.I.I.I.W.Y.I.P.c.v.I.I.I.j.c.P.P.I.W.%X",
"2X|.!.W.W.W.I.W.W.W.W.Y.I.I.I.P.I.I.R.I.I.I.v.v.v.P.I.v.c.I.U.I.I.I.I.P.P.P.Y.Y.R.I.I.P.I.I.P.P.I.c.I.I.Y.I.Y.Y.W.I.I.I.v.v.v.I.I.v.c.P.P.P.W.%X",
"2X|.Q.W.W.W.P.P.v.v.v.v.v.I.v.v.c.v.v.I.a.v.c.a.a.c.c.c.v.I.v.v.P.I.I.P.I.Y.Y.I.R.I.P.P.P.a.a.P.I.P.Y.R.Y.I.I.Y.W.I.I.I.v.v.v.v.P.v.l.l.c.v.Q.*X",
"2X|.!.R.I.I.v.P.I.I.I.I.v.I.I.I.v.a.v.v.v.v.v.v.I.I.I.v.P.R.R.R.R.W.W.W.W.W.Y.I.Y.I.Y.P.P.P.I.I.Y.P.I.Y.Y.Y.v.v.P.I.I.Y.I.Y.Y.W.I.I.W.Y.I.I.Q.=X",
"2X|.!.R.I.P.c.c.I.P.I.I.v.P.I.I.I.a.v.I.I.Y.v.v.I.I.v.v.P.Y.Y.W.W.W.R.R.W.W.Y.P.I.I.I.I.a.P.I.I.I.P.P.I.I.I.a.P.P.I.I.Y.v.I.I.v.P.v.W.W.I.P.W.&X",
"1X|.!.I.P.P.a.v.P.I.I.v.v.I.I.I.v.a.I.I.Y.Y.v.v.I.I.I.v.c.I.I.I.Y.Y.I.I.I.I.I.P.I.I.P.a.a.I.I.I.I.c.P.P.I.I.a.v.I.I.Y.Y.v.P.I.v.P.v.I.W.I.I.W.&X",
"2X|.!.Y.I.P.c.v.I.I.I.P.v.I.I.I.v.c.R.W.R.W.W.Y.v.v.I.v.c.I.P.P.I.Y.I.P.P.I.Y.I.I.I.I.P.P.P.I.Y.I.I.P.P.I.I.I.I.I.R.Y.R.Y.I.N.I.P.v.R.W.I.I.W.$X",
"2X|.!.R.I.I.c.P.I.R.I.I.c.v.v.v.v.v.R.W.W.Q.U.z.v.v.P.v.v.P.v.P.I.I.v.c.c.v.P.c.c.v.I.I.v.P.I.I.Y.P.l.l.z.M.z.M.U.R.R.Y.v.l.l.v.P.P.I.I.I.I.W.=X",
"2X|.!.Q.W.W.P.I.I.W.W.W.Y.R.R.W.E.R.R.W.W.W.R.I.P.Y.U.R.R.W.R.R.W.I.v.c.c.v.P.P.I.I.I.R.R.W.Q.Q.Q.W.P.P.U.M.z.U.P.Y.Y.R.I.v.v.v.P.I.I.I.I.Y.Q.=X",
"2X'.W.R.Y.I.l.P.Y.Y.I.P.v.Y.Y.Y.R.P.I.I.Y.Y.P.P.I.Y.Y.Y.U.W.R.Y.I.v.P.P.I.I.I.R.Q.Y.I.I.W.W.Q.Q.!.R.P.(.}.[.Z.F.U.I.I.I.P.Y.Y.Y.P.P.P.I.I.Y.Q.=X",
"2X`.R.I.I.P.a.P.I.I.P.v.j.I.I.I.P.v.I.I.I.I.z.P.I.I.I.P.I.W.Y.Y.P.v.I.I.I.I.I.Y.R.Y.I.I.I.Y.I.R.Y.Y.U.{.y.Q E 6.T.U.I.I.P.P.I.U.I.c.P.I.I.I.Q.$X",
"2X'.Y.P.I.P.a.P.I.I.I.P.c.P.I.P.v.v.U.Y.P.M.v.v.Y.P.P.I.I.R.Y.B.N.v.I.Y.I.I.I.R.R.I.I.P.v.I.I.I.I.Y.U.G.` _ l e.A.^.U.I.v.P.P.I.I.P.c.I.Y.I.Q.%X",
"2X'.I.v.P.P.c.P.I.I.I.P.c.P.P.P.P.v.P.U.n./ C.N.Y.I.I.I.I.R.M./ ,.v.I.I.I.I.Y.R.R.I.I.P.I.v.a.I.I.Y.M.n.^ ' C _ R Z.U.U.v.P.I.P.P.a.a.I.I.I.Q.%X",
"1X).c.l.c.P.v.c.v.v.v.c.a.j.c.l.v.v.P.b.,.I ) C.B.P.v.z.U.B.d.U ( k.I.I.I.P.Y.I.Y.I.P.P.P.v.I.a.I.P.j.j.h.4.' z r Z.P.P.I.P.v.v.c.c.a.a.P.P.R.&X",
"<X`.W.R.R.R.P.v.P.P.v.v.v.v.v.v.P.P.n.T I > > R 4.B.U.v.F.~ w > < T b.W.R.R.Y.R.R.I.I.I.I.R.W.R.W.R.v.v.U.n.` z e V.U.Y.P.I.Y.I.P.P.c.P.P.P.W.&X",
"<X`.W.R.R.R.I.I.I.I.I.P.P.P.P.P.U.v.n.t e 9 9 s 1.L.L.L.A.! 0 = & 5 d.Y.W.W.Y.Y.W.I.I.I.I.R.I.R.W.R.I.I.P.n.9.z e h.v.I.v.Y.Y.Y.P.c.P.I.I.I.W.%X",
"<X`.R.I.I.I.I.I.Y.I.I.P.I.I.I.I.I.l.h.t a B A F 0.r.<.y.t.D m - - w >.x.I.I.I.R.W.I.I.a.P.I.I.I.Y.Y.I.I.I.b.` k e g.I.I.v.I.I.v.P.P.P.I.I.I.!.%X",
"<X`.R.P.P.I.I.I.Y.I.I.R.I.Y.I.I.U.l.b.R N { J H { q.w.7.} | D 0 3 i ;.g.v.I.Y.R.W.I.I.P.a.I.I.I.I.Y.Y.U.N.C.} z 6 b.Y.Y.P.I.I.W.I.P.I.I.Y.I.~.=X",
"<X`.I.P.P.Y.R.I.I.I.P.I.v.v.v.U.P.l.b.;.0.| G H ..{ } w.0.0.D D } } ! Y ,.M.Y.Y.W.Y.Y.Y.R.I.I.I.Y.R.v.F.<.9.} n I b.Y.U.I.Y.I.N.I.P.I.R.I.I.!.=X",
"<X'.Q.W.W.Q.R.Y.Y.Y.I.I.I.P.P.v.Y.U.x.U s q.#.G G J } 0.V 9 2 ] D ] ` 4 U M.M.U.R.R.R.R.W.W.W.W.W.W.U.G.e.D V 2.g.W.W.W.W.W.W.Y.I.Y.I.I.I.R.Q.=X",
"1X'.Q.W.Q.Q.I.I.P.Y.I.P.P.I.I.v.U.b./ . $ V | ] F | | ] i   o m ] F m # % , O + ,.v.I.I.Y.W.W.W.Q.R.T.[.w.z p k.I.I.Y.Y.P.Y.I.W.P.P.P.I.I.I.Q.&X",
"<X`.R.I.I.Y.I.I.Y.I.I.P.P.I.P.P.h.<.< o = ' N i b ' F F a o @ B | q.m - & : , / s.v.I.v.I.I.Y.Y.W.W.F.i.7.n 5 s.I.I.I.I.v.I.I.I.P.v.P.R.I.I.Q.=X",
"<X_.Y.I.I.I.I.I.Y.P.I.Y.I.I.I.P.b.:._ N _ ' >   @ ` ] ] ' N ' S K K F B _ 4 T k.I.I.I.v.v.I.v.v.N.F.1.9.7.f I k.N.I.I.I.v.P.I.I.P.P.P.I.I.I.Q.&X",
",X).Y.I.v.I.I.I.I.I.I.I.P.I.P.a.g.8.} | D s > X @ s B F ] q.| F K F F n f w U f.x.N.M.M.b.x.M.x.B.Z.9.V ! 2.,.g.v.P.I.P.v.P.P.P.P.l.P.I.P.P.W.=X",
"1X`.I.a.v.c.I.I.I.I.I.v.v.I.a.+ ( 7.%.A 8 # 1 E 2 # 3 ] q.F %.#.J K C = # @ % , P ~ <.1.1.1.1.1.1.e.0.a U k.v.x.z.v.v.P.I.Y.P.z.c.P.P.I.P.c.W.&X",
"1X`.W.I.I.v.I.Y.R.W.R.R.I.R.Y.,.>.0.K A g * 9 ` b * ; A | F v #.F A C = # @ # $ > f 9.7.9.7.w.' ` ' _ ) ,.B.U.c.P.P.P.I.c.I.Y.Y.I.I.P.I.Y.Y.!.=X",
"1X`.W.Y.I.v.v.R.I.Y.R.R.Y.Y.Y.I.n.r.' K A C D D ' m Z F | %.{ #.%.F q.B z 3 3 N B D } | | A %.F ] a I f.x.I.I.z.v.P.I.I.j.P.P.P.P.c.c.I.I.I.Q.&X",
"1X`.Y.I.I.I.v.I.I.I.I.I.I.I.I.I.N.4.u.' F | | | K A K A A | #.A A K F Z S z j S F F J #.J G J v S W ( m.U.P.v.v.I.I.Y.Y.l.v.P.I.P.c.a.P.I.I.W.%X",
"1X).Y.I.I.I.a.I.I.v.v.I.I.v.v.v.v.B.D.e.0.| A A J G J #.%.F %.%.K K Z k k C Z F F J J J J G G x p V.M.P.P.I.P.v.R.R.R.R.v.v.I.I.P.v.c.I.I.I.W.&X",
"1X).I.a.c.a.c.c.v.a.v.I.v.c.c.v.v.U.^.5.r.0.#.v G #.#.A K K K K %.A C j g Z K K %.%.J J J K A k r C.v.v.c.P.l.l.Y.I.P.P.l.v.P.P.P.c.a.P.v.v.W.%X",
"2X`.I.v.a.v.v.I.v.I.I.I.I.I.I.v.v.v.v.B.A.7.{ ..X.&.$.G K K K K K A K v Z F K K A | | | K K D q r S.U.P.I.P.v.v.Y.P.v.Y.Y.Y.R.Y.W.P.P.I.P.P.Q.&X",
"2X'.Y.I.I.I.I.I.I.I.I.v.I.Y.R.I.v.v.I.U.H.r.[ ..X.=.&...J #.#.K #.J K K K K K K F %.F | | 0.q.q r K.I.I.I.P.c.c.P.P.I.Y.W.W.Y.W.W.I.c.I.I.I.!.&X",
"2X].R.I.I.I.a.v.I.I.I.v.v.I.I.I.P.v.I.U.m.;. .*.=.-.+.$.$.G v #.K J K %.K K K K F F F | | F ] a w h.v.I.P.P.c.c.P.P.I.I.Y.Y.I.I.I.c.c.P.P.I.W.%X",
"2X].R.I.I.Y.v.v.Y.Y.I.I.v.I.I.I.P.P.I.I.b.;. .=.@.@.@.o.o.....{ A A F K K K K K J #.A #.J A Z z 7 d.M.v.P.I.v.v.P.P.I.I.P.P.I.P.P.c.a.P.I.I.W.%X",
"2X'.Y.v.P.Y.c.a.v.Y.v.v.v.Y.v.v.v.l.v.v.x.>.} *.o.O.O.@.+.o.X.[ #.%.K K K K K K J J J #.J J J Z C ;.,.x.v.v.v.c.v.c.c.v.v.v.P.c.P.P.c.P.P.I.Q.%X",
"2X'.I.v.c.I.P.I.Y.I.I.W.W.Y.I.I.Y.v.c.c.x.d.;.*.*.@.@.@.@.@.*...{ { K A K F K K J J v #.J G J K F b I s.v.P.c.c.P.v.c.P.v.c.c.c.P.P.c.P.P.I.Q.&X",
"2X'.Y.I.I.Y.I.W.W.I.Y.Y.I.I.Y.Y.I.c.v.I.v.v.s.Q [ o.@.@.+.=.*.[ A J %.K K %.] F J %.{ #.#.J J K F b R n.I.I.c.I.W.I.P.I.P.P.P.P.I.I.P.I.I.I.Q.%X",
"2X].R.I.I.I.P.W.Y.I.I.I.v.I.I.I.I.c.I.I.I.P.k.d c X.o.+.+.*.$.#.#.%.%.A F F ] F F F Z A A F | %.F l w D.I.I.c.P.W.I.P.P.P.I.P.I.I.I.P.I.I.I.Q.%X",
"1X].W.I.I.I.c.R.Y.I.I.I.v.I.Y.I.I.v.I.I.P.I.x.;.c c h h c c c A #.#.C z l b b 0 a q q q z D D | Z b w C.I.I.a.P.W.I.P.P.P.I.R.I.Y.I.v.I.I.I.Q.$X",
"2X].R.P.P.I.v.Y.Y.I.I.v.v.P.I.I.I.P.I.I.I.I.J.:.n 8 9 r u u a A | q.M a r y t d d 7 6 6 9 _ e.} F q r C.v.I.v.v.W.I.I.v.I.W.W.W.W.I.v.P.P.I.Q.&X",
"2X`.P.c.v.v.c.P.I.P.P.P.c.c.v.c.c.P.P.c.v.v.J.:.N 6 ;.Z.K.L.i.t.F l Q 6.S.G.S.K.S.R > 6 > 5.Z.u.0.q y C.x.v.c.v.I.v.v.P.Y.Y.Y.Y.I.P.c.c.P.P.W.=X",
"2X'.W.I.I.P.l.v.I.I.P.P.P.I.I.I.I.v.P.P.P.Y.L.1.! e <.x.W.^.J.r.9.u ~ m.U.U.W.E.^.Y < : < H.T.[.r.f R D.Y.I.c.v.v.I.I.Y.I.Y.I.Y.P.v.v.P.P.I.!.%X",
"2X`.W.I.I.P.a.v.I.I.I.v.l.I.I.I.I.v.I.I.I.I.E.}.u.d 3.x.I.W.(.<.y.6.K.U.I.U.v.W.E.H.4.P L J.E.(.{.:.I D.U.P.c.c.Y.I.I.I.v.I.I.Y.P.v.P.I.I.I.W.%X",
"2X'.Y.I.I.P.j.P.Y.I.P.P.l.P.P.P.P.c.I.I.I.I.I.W.{.Y 2.N.I.W.(.5.6.B.W.Y.I.I.Y.W.W.W.b.>.O ^.W.W.B.6.T B.I.I.l.l.I.I.Y.I.v.P.I.I.P.v.v.I.I.I.Q.$X",
"2X'.R.I.P.P.l.P.I.I.I.P.l.P.I.I.P.P.I.I.I.I.I.I./.K.(.W.I.W.E.(.(.N.I.I.v.I.R.Y.W.v.v.^.B.Y.v.v.I./.D.N.I.I.v.j.P.I.Y.I.P.P.I.P.I.v.c.I.R.I.Q.%X",
"1X`.P.c.v.P.l.v.P.P.P.c.j.c.v.v.P.c.P.v.P.P.P.P.I.N.N.P.v.Y.Y.Y.Y.v.I.v.v.v.I.Y.W.Y.v.Y.P.P.c.c.I.U.j.l.j.v.l.j.c.P.P.P.v.P.P.v.c.a.a.c.P.P.W.&X",
"1X`.I.P.I.Y.P.c.c.P.P.c.j.l.l.c.c.P.P.P.I.I.Y.Y.I.I.P.v.Y.W.I.Y.Y.I.W.Y.Y.Y.Y.I.R.Y.v.Y.I.I.I.I.Y.Y.c.l.l.c.v.v.P.P.I.I.I.I.I.P.v.c.c.c.v.P.W.&X",
"1X'.W.W.W.W.P.P.P.I.I.P.v.P.P.P.Y.I.I.I.I.I.I.Y.I.Y.I.v.I.R.W.W.E.W.W.W.W.W.W.W.W.I.P.P.I.W.W.W.Q.W.P.P.P.I.I.P.P.P.I.I.I.I.I.Y.P.v.v.P.P.I.W.%X",
"1X`.W.I.I.W.I.I.I.I.I.P.P.I.I.P.I.P.I.I.I.I.a.P.I.Y.I.v.I.I.Y.Y.Y.I.Y.I.I.I.Y.I.W.I.P.v.P.I.Y.I.R.W.I.I.I.I.P.c.I.I.I.I.v.I.I.I.P.v.P.I.I.I.Q.&X",
"1X_.R.I.I.I.I.I.I.I.I.I.P.I.P.I.I.a.I.Y.I.I.P.P.I.I.I.v.v.I.P.v.I.I.I.I.P.P.I.W.R.P.P.c.c.P.P.P.I.Y.I.I.I.P.P.l.P.I.I.I.v.P.I.I.I.v.P.Y.I.I.!.&X",
",X).I.v.v.P.P.I.I.I.I.I.P.P.v.I.I.a.a.I.I.Y.P.P.I.P.c.c.c.v.v.v.P.v.v.v.v.P.I.I.R.I.P.P.v.v.v.v.P.Y.P.P.P.I.P.a.P.I.I.I.v.P.I.P.v.l.v.I.I.P.Q.&X",
"1X_.v.c.c.v.P.c.v.v.v.v.c.c.c.v.P.a.P.I.I.P.P.v.v.c.c.a.c.j.c.c.c.P.P.P.v.P.P.P.Y.P.P.P.l.j.p.p.l.v.l.l.c.P.c.z.P.I.P.P.P.P.P.c.v.c.I.I.P.P.R.&X",
"2X'.Y.v.P.I.I.v.v.v.v.P.c.v.v.P.P.P.W.I.I.I.P.P.I.Y.Y.v.j.v.v.P.P.P.I.W.W.W.Y.R.W.I.I.I.c.v.v.P.I.v.v.P.I.I.P.I.W.Y.I.I.v.P.I.I.P.c.v.I.Y.Y.R.&X",
"2X'.Y.I.I.Y.I.v.v.I.I.W.P.I.I.I.I.P.W.Y.I.P.P.v.I.I.I.c.c.I.I.I.P.P.I.Y.R.W.Y.W.W.I.P.P.v.I.I.P.I.v.v.I.I.I.I.Y.W.I.P.P.l.P.I.I.P.l.c.P.P.U.R.%X",
"2X].W.Y.I.W.I.Y.I.I.I.I.I.Y.I.I.I.I.R.I.P.P.a.v.I.I.I.c.c.I.I.P.I.v.I.P.P.I.I.I.W.I.P.P.v.I.I.P.I.v.P.Y.I.I.I.I.W.I.P.P.l.P.I.I.P.l.c.I.I.P.R.%X",
"2X.X!.W.R.W.Y.R.R.R.R.Y.P.I.I.I.I.I.R.I.I.P.P.P.I.P.I.P.a.I.I.I.I.P.P.P.v.P.I.Y.R.I.I.P.v.P.P.P.I.v.P.Y.I.I.R.Y.R.Y.I.I.P.P.I.I.I.z.P.P.P.P.R.&X",
"2X].Q.R.R.Y.I.I.I.v.P.P.v.I.P.c.v.P.I.I.c.P.a.a.a.a.P.a.P.I.I.P.P.P.v.z.c.v.P.P.I.P.v.v.v.c.l.v.U.v.I.Y.I.I.P.I.Y.Y.I.P.z.a.l.z.P.z.j.l.l.v.R.&X",
"2X.XQ.W.R.I.P.P.I.P.P.I.P.I.I.I.P.a.P.c.c.P.P.a.I.I.I.P.P.R.Y.Y.R.Y.Y.Y.Y.R.I.P.Y.I.P.P.v.v.P.Y.I.I.U.Y.R.Y.P.v.P.P.I.Y.I.I.I.Y.I.I.I.Y.I.U.Q.=X",
"2X.X!.I.I.I.a.v.I.I.I.I.v.I.I.I.P.a.P.P.I.I.P.P.I.I.I.P.I.R.R.W.W.W.R.R.R.W.Y.P.I.I.P.c.l.I.I.I.I.P.P.I.I.I.v.c.P.I.I.Y.P.I.I.I.I.P.R.R.I.I.R.&X",
"2X.X!.Y.I.P.a.a.I.I.P.v.a.I.I.I.c.a.P.I.I.I.P.v.I.I.I.a.P.I.I.I.Y.R.Y.I.R.I.I.P.P.I.I.v.j.I.I.I.I.c.v.I.I.I.c.c.I.I.I.Y.P.P.I.I.I.c.R.W.I.I.R.=X",
"2X.XQ.Y.I.P.a.P.I.I.I.v.I.P.I.Y.I.a.R.R.R.R.R.I.I.I.I.P.a.I.I.I.I.I.P.P.P.P.I.I.P.I.I.v.l.v.Y.U.I.P.P.P.P.I.c.P.Y.R.Y.R.I.I.P.I.I.c.Y.R.I.I.R.%X",
"2X.X).Q.Q.R.I.Y.W.Q.W.R.I.I.Q.W.R.I.!.~.!.!.W.I.I.Y.R.Y.I.R.I.R.W.W.W.Y.Y.W.W.I.Y.Y.R.R.P.U.W.W.R.R.I.R.R.W.Y.R.!.!.!.!.Y.I.R.R.W.R.W.!.W.W.!.=X",
"2X-X$X@X@X@X@XXX+X+X#X#X+XXXXXXX@X@X#X@X#X#X@XXX+X@X@X@X@X#XXX@X@X#X#X@X@X#X#XXXOX+X@X@X#X@X@X#X@X@X X X X XoX+X#X@X#X#XOX X XoX+X@X@X$X@X+X#X<X"
};
